(Project 180V_power )
(generated by iStivi python script drill+mill_genarator.py)
G71 G90
( T01 : 0.6000 )
( T02 : 0.8000 )
( T03 : 1.2000 )
( T04 : 3.0000 )
F500
G0 Z5
G0 Z20
T01 M6 (0.6000)
G0 X12.700 Y10.160
G1 Z-2
G4 P0.1
G0 Z2
G0 X17.780 Y10.160
G1 Z-2
G4 P0.1
G0 Z2
G0 X27.178 Y37.592
G1 Z-2
G4 P0.1
G0 Z2
G0 X27.178 Y47.752
G1 Z-2
G4 P0.1
G0 Z2
G0 X31.242 Y59.182
G1 Z-2
G4 P0.1
G0 Z2
G0 X41.084 Y58.594
G1 Z-2
G4 P0.1
G0 Z2
G0 X41.084 Y55.038
G1 Z-2
G4 P0.1
G0 Z2
G0 X21.082 Y59.182
G1 Z-2
G4 P0.1
G0 Z2
G0 X19.050 Y43.688
G1 Z-2
G4 P0.1
G0 Z2
G0 X19.050 Y41.148
G1 Z-2
G4 P0.1
G0 Z2
G0 X19.050 Y38.608
G1 Z-2
G4 P0.1
G0 Z2
G0 Z20
T02 M6 (0.8000)
G0 X16.510 Y29.464
G1 Z-2
G4 P0.1
G0 Z2
G0 X16.510 Y26.924
G1 Z-2
G4 P0.1
G0 Z2
G0 X16.510 Y24.384
G1 Z-2
G4 P0.1
G0 Z2
G0 X16.510 Y21.844
G1 Z-2
G4 P0.1
G0 Z2
G0 X8.890 Y21.844
G1 Z-2
G4 P0.1
G0 Z2
G0 X8.890 Y24.384
G1 Z-2
G4 P0.1
G0 Z2
G0 X8.890 Y26.924
G1 Z-2
G4 P0.1
G0 Z2
G0 X8.890 Y29.464
G1 Z-2
G4 P0.1
G0 Z2
G0 X21.463 Y53.594
G1 Z-2
G4 P0.1
G0 Z2
G0 X30.353 Y53.594
G1 Z-2
G4 P0.1
G0 Z2
G0 X33.274 Y44.196
G1 Z-2
G4 P0.1
G0 Z2
G0 X30.099 Y41.656
G1 Z-2
G4 P0.1
G0 Z2
G0 X38.354 Y41.656
G1 Z-2
G4 P0.1
G0 Z2
G0 X38.354 Y46.736
G1 Z-2
G4 P0.1
G0 Z2
G0 X30.520 Y16.086
G1 Z-2
G4 P0.1
G0 Z2
G0 X30.520 Y9.786
G1 Z-2
G4 P0.1
G0 Z2
G0 X35.520 Y13.086
G1 Z-2
G4 P0.1
G0 Z2
G0 Z20
T03 M6 (1.2000)
G0 X30.910 Y69.040
G1 Z-2
G4 P0.1
G0 Z2
G0 X27.410 Y69.040
G1 Z-2
G4 P0.1
G0 Z2
G0 Z20
T04 M6 (3.0000)
G0 X5.000 Y5.000
G1 Z-2
G4 P0.1
G0 Z2
G0 X44.000 Y5.000
G1 Z-2
G4 P0.1
G0 Z2
G0 X44.000 Y70.000
G1 Z-2
G4 P0.1
G0 Z2
G0 X5.000 Y70.000
G1 Z-2
G4 P0.1
G0 Z2
(start milling routine)
F500
T201 M6 (1mm mill)
G0 Z5 X000.000 Y000.000
G0 Z5 X029.420 Y016.086
G1 Z-0.5
G1 X031.620 Y016.086
G1 Z1
G0 X029.420 Y016.086
G1 Z-1
G1 X031.620 Y016.086
G1 Z1
G0 X029.420 Y016.086
G1 Z-1.5
G1 X031.620 Y016.086
G1 Z1
G0 Z1 X029.420 Y016.086
G1 Z-2
G1 X031.620 Y016.086
G0 Z5
G0 Z5 X031.620 Y009.736
G1 Z-0.5
G1 X029.420 Y009.736
G1 Z1
G0 X031.620 Y009.736
G1 Z-1
G1 X029.420 Y009.736
G1 Z1
G0 X031.620 Y009.736
G1 Z-1.5
G1 X029.420 Y009.736
G1 Z1
G0 Z1 X031.620 Y009.736
G1 Z-2
G1 X029.420 Y009.736
G0 Z5
G0 Z5 X035.520 Y011.986
G1 Z-0.5
G1 X035.520 Y014.186
G1 Z1
G0 X035.520 Y011.986
G1 Z-1
G1 X035.520 Y014.186
G1 Z1
G0 X035.520 Y011.986
G1 Z-1.5
G1 X035.520 Y014.186
G1 Z1
G0 Z1 X035.520 Y011.986
G1 Z-2
G1 X035.520 Y014.186
G0 Z5
G0 Z5 X000.000 Y000.000
M30
