(generated by iStivi python script drill+mill_genarator.py)
G71 G90
F500
G0 Z5
( T01 : 0.6000 )
( T02 : 0.7000 )
( T03 : 0.8000 )
( T04 : 3.0000 )
G0 Z25
T01 M6 (T01 0.6000)
M3
G90 G81 G99 X11.220 Y32.234 Z-3 R3
G90 G81 G99 X9.410 Y35.680 Z-3 R3
G90 G81 G99 X18.780 Y32.234 Z-3 R3
G90 G81 G99 X20.590 Y35.680 Z-3 R3
G90 G81 G99 X34.410 Y35.680 Z-3 R3
G90 G81 G99 X36.220 Y32.234 Z-3 R3
G90 G81 G99 X43.780 Y32.234 Z-3 R3
G90 G81 G99 X45.590 Y35.680 Z-3 R3
G90 G81 G99 X45.590 Y40.000 Z-3 R3
G90 G81 G99 X45.590 Y44.320 Z-3 R3
G90 G81 G99 X43.780 Y47.766 Z-3 R3
G90 G81 G99 X40.000 Y48.640 Z-3 R3
G90 G81 G99 X36.220 Y47.766 Z-3 R3
G90 G81 G99 X34.410 Y44.320 Z-3 R3
G90 G81 G99 X28.020 Y45.090 Z-3 R3
G90 G81 G99 X34.410 Y40.000 Z-3 R3
G90 G81 G99 X53.420 Y45.090 Z-3 R3
G90 G81 G99 X64.850 Y45.090 Z-3 R3
G90 G81 G99 X68.660 Y45.090 Z-3 R3
G90 G81 G99 X74.410 Y44.320 Z-3 R3
G90 G81 G99 X76.220 Y47.766 Z-3 R3
G90 G81 G99 X68.660 Y55.250 Z-3 R3
G90 G81 G99 X64.850 Y55.250 Z-3 R3
G90 G81 G99 X53.420 Y55.250 Z-3 R3
G90 G81 G99 X28.020 Y55.250 Z-3 R3
G90 G81 G99 X74.410 Y40.000 Z-3 R3
G90 G81 G99 X74.410 Y35.680 Z-3 R3
G90 G81 G99 X76.220 Y32.234 Z-3 R3
G90 G81 G99 X83.780 Y32.234 Z-3 R3
G90 G81 G99 X85.590 Y35.680 Z-3 R3
G90 G81 G99 X99.410 Y35.680 Z-3 R3
G90 G81 G99 X101.220 Y32.234 Z-3 R3
G90 G81 G99 X108.780 Y32.234 Z-3 R3
G90 G81 G99 X110.590 Y35.680 Z-3 R3
G90 G81 G99 X110.590 Y40.000 Z-3 R3
G90 G81 G99 X110.590 Y44.320 Z-3 R3
G90 G81 G99 X108.780 Y47.766 Z-3 R3
G90 G81 G99 X105.000 Y48.640 Z-3 R3
G90 G81 G99 X101.220 Y47.766 Z-3 R3
G90 G81 G99 X99.410 Y44.320 Z-3 R3
G90 G81 G99 X94.060 Y45.165 Z-3 R3
G90 G81 G99 X90.885 Y45.165 Z-3 R3
G90 G81 G99 X99.410 Y40.000 Z-3 R3
G90 G81 G99 X94.060 Y55.325 Z-3 R3
G90 G81 G99 X90.885 Y55.325 Z-3 R3
G0 Z25
T02 M6 (T02 0.7000)
M3
G90 G81 G99 X60.000 Y48.500 Z-3 R3
G90 G81 G99 X60.000 Y43.500 Z-3 R3
G90 G81 G99 X60.000 Y36.500 Z-3 R3
G90 G81 G99 X60.000 Y31.500 Z-3 R3
G0 Z25
T03 M6 (T03 0.8000)
M3
G90 G81 G99 X55.880 Y31.242 Z-3 R3
G90 G81 G99 X50.419 Y30.480 Z-3 R3
G90 G81 G99 X49.276 Y33.147 Z-3 R3
G90 G81 G99 X38.608 Y30.861 Z-3 R3
G90 G81 G99 X37.719 Y36.068 Z-3 R3
G90 G81 G99 X36.449 Y42.037 Z-3 R3
G90 G81 G99 X28.702 Y25.146 Z-3 R3
G90 G81 G99 X27.305 Y22.945 Z-3 R3
G90 G81 G99 X24.765 Y22.945 Z-3 R3
G90 G81 G99 X22.225 Y22.945 Z-3 R3
G90 G81 G99 X19.685 Y22.945 Z-3 R3
G90 G81 G99 X17.145 Y22.945 Z-3 R3
G90 G81 G99 X14.605 Y22.945 Z-3 R3
G90 G81 G99 X12.065 Y22.945 Z-3 R3
G90 G81 G99 X9.525 Y22.945 Z-3 R3
G90 G81 G99 X4.445 Y20.955 Z-3 R3
G90 G81 G99 X4.445 Y18.415 Z-3 R3
G90 G81 G99 X9.525 Y15.325 Z-3 R3
G90 G81 G99 X12.065 Y15.325 Z-3 R3
G90 G81 G99 X14.605 Y15.325 Z-3 R3
G90 G81 G99 X17.145 Y15.325 Z-3 R3
G90 G81 G99 X19.685 Y15.325 Z-3 R3
G90 G81 G99 X22.225 Y15.325 Z-3 R3
G90 G81 G99 X24.765 Y15.325 Z-3 R3
G90 G81 G99 X27.305 Y15.325 Z-3 R3
G90 G81 G99 X32.131 Y11.557 Z-3 R3
G90 G81 G99 X35.325 Y15.325 Z-3 R3
G90 G81 G99 X37.865 Y15.325 Z-3 R3
G90 G81 G99 X40.405 Y15.325 Z-3 R3
G90 G81 G99 X42.945 Y15.325 Z-3 R3
G90 G81 G99 X45.485 Y15.325 Z-3 R3
G90 G81 G99 X48.025 Y15.325 Z-3 R3
G90 G81 G99 X50.565 Y15.325 Z-3 R3
G90 G81 G99 X53.105 Y15.325 Z-3 R3
G90 G81 G99 X57.912 Y19.050 Z-3 R3
G90 G81 G99 X64.770 Y15.320 Z-3 R3
G90 G81 G99 X67.310 Y15.320 Z-3 R3
G90 G81 G99 X69.850 Y15.320 Z-3 R3
G90 G81 G99 X72.390 Y15.320 Z-3 R3
G90 G81 G99 X74.930 Y15.320 Z-3 R3
G90 G81 G99 X77.470 Y15.320 Z-3 R3
G90 G81 G99 X80.010 Y15.320 Z-3 R3
G90 G81 G99 X82.550 Y15.320 Z-3 R3
G90 G81 G99 X90.824 Y15.160 Z-3 R3
G90 G81 G99 X93.364 Y15.160 Z-3 R3
G90 G81 G99 X95.904 Y15.160 Z-3 R3
G90 G81 G99 X98.444 Y15.160 Z-3 R3
G90 G81 G99 X100.984 Y15.160 Z-3 R3
G90 G81 G99 X103.524 Y15.160 Z-3 R3
G90 G81 G99 X106.064 Y15.160 Z-3 R3
G90 G81 G99 X108.604 Y15.160 Z-3 R3
G90 G81 G99 X109.093 Y12.319 Z-3 R3
G90 G81 G99 X110.744 Y9.398 Z-3 R3
G90 G81 G99 X104.775 Y7.112 Z-3 R3
G90 G81 G99 X90.250 Y4.130 Z-3 R3
G90 G81 G99 X87.376 Y7.620 Z-3 R3
G90 G81 G99 X83.900 Y4.130 Z-3 R3
G90 G81 G99 X78.820 Y4.130 Z-3 R3
G90 G81 G99 X76.327 Y5.969 Z-3 R3
G90 G81 G99 X74.168 Y5.461 Z-3 R3
G90 G81 G99 X75.565 Y3.810 Z-3 R3
G90 G81 G99 X69.469 Y3.556 Z-3 R3
G90 G81 G99 X66.120 Y4.130 Z-3 R3
G90 G81 G99 X63.580 Y4.130 Z-3 R3
G90 G81 G99 X61.040 Y4.130 Z-3 R3
G90 G81 G99 X58.500 Y4.130 Z-3 R3
G90 G81 G99 X60.706 Y6.350 Z-3 R3
G90 G81 G99 X64.389 Y9.906 Z-3 R3
G90 G81 G99 X53.420 Y4.130 Z-3 R3
G90 G81 G99 X50.880 Y4.130 Z-3 R3
G90 G81 G99 X48.340 Y4.130 Z-3 R3
G90 G81 G99 X52.197 Y6.096 Z-3 R3
G90 G81 G99 X43.260 Y4.130 Z-3 R3
G90 G81 G99 X40.720 Y4.130 Z-3 R3
G90 G81 G99 X38.180 Y4.130 Z-3 R3
G90 G81 G99 X35.640 Y4.130 Z-3 R3
G90 G81 G99 X30.560 Y4.130 Z-3 R3
G90 G81 G99 X28.020 Y4.130 Z-3 R3
G90 G81 G99 X41.402 Y7.620 Z-3 R3
G90 G81 G99 X66.040 Y17.653 Z-3 R3
G90 G81 G99 X67.691 Y19.050 Z-3 R3
G90 G81 G99 X71.120 Y17.653 Z-3 R3
G90 G81 G99 X69.850 Y22.940 Z-3 R3
G90 G81 G99 X67.310 Y22.940 Z-3 R3
G90 G81 G99 X64.770 Y22.940 Z-3 R3
G90 G81 G99 X72.390 Y22.940 Z-3 R3
G90 G81 G99 X74.930 Y22.940 Z-3 R3
G90 G81 G99 X77.470 Y22.940 Z-3 R3
G90 G81 G99 X80.010 Y22.940 Z-3 R3
G90 G81 G99 X82.550 Y22.940 Z-3 R3
G90 G81 G99 X87.376 Y23.114 Z-3 R3
G90 G81 G99 X90.824 Y22.780 Z-3 R3
G90 G81 G99 X93.364 Y22.780 Z-3 R3
G90 G81 G99 X95.904 Y22.780 Z-3 R3
G90 G81 G99 X98.444 Y22.780 Z-3 R3
G90 G81 G99 X100.984 Y22.780 Z-3 R3
G90 G81 G99 X103.524 Y22.780 Z-3 R3
G90 G81 G99 X106.064 Y22.780 Z-3 R3
G90 G81 G99 X108.604 Y22.780 Z-3 R3
G90 G81 G99 X97.155 Y31.877 Z-3 R3
G90 G81 G99 X95.123 Y32.766 Z-3 R3
G90 G81 G99 X85.725 Y29.972 Z-3 R3
G90 G81 G99 X86.360 Y26.670 Z-3 R3
G90 G81 G99 X90.932 Y26.670 Z-3 R3
G90 G81 G99 X87.249 Y19.812 Z-3 R3
G90 G81 G99 X74.549 Y26.162 Z-3 R3
G90 G81 G99 X70.993 Y33.909 Z-3 R3
G90 G81 G99 X53.105 Y22.945 Z-3 R3
G90 G81 G99 X50.565 Y22.945 Z-3 R3
G90 G81 G99 X48.025 Y22.945 Z-3 R3
G90 G81 G99 X45.485 Y22.945 Z-3 R3
G90 G81 G99 X42.945 Y22.945 Z-3 R3
G90 G81 G99 X40.405 Y22.945 Z-3 R3
G90 G81 G99 X37.865 Y22.945 Z-3 R3
G90 G81 G99 X35.325 Y22.945 Z-3 R3
G90 G81 G99 X32.512 Y20.701 Z-3 R3
G90 G81 G99 X30.353 Y20.320 Z-3 R3
G90 G81 G99 X78.232 Y8.128 Z-3 R3
G90 G81 G99 X115.570 Y32.639 Z-3 R3
G90 G81 G99 X107.950 Y35.306 Z-3 R3
G90 G81 G99 X112.776 Y42.291 Z-3 R3
G90 G81 G99 X107.315 Y50.038 Z-3 R3
G0 Z25
T04 M6 (T04 3.0000)
M3
G90 G81 G99 X5.000 Y5.000 Z-3 R3
G90 G81 G99 X5.000 Y55.000 Z-3 R3
G90 G81 G99 X115.000 Y55.000 Z-3 R3
G90 G81 G99 X115.000 Y5.000 Z-3 R3
M30
