(Project battery_board )
(generated by iStivi python script drill+mill_genarator.py)
G71 G90
F500
G0 Z5
( T01 : 0.7000 )
( T02 : 0.8000 )
( T03 : 0.9000 )
( T04 : 1.0000 )
( T05 : 1.1000 )
( T06 : 1.2000 )
( T07 : 3.0000 )
G0 Z20
T01 M6 (T01 0.7000)
G4 P0.1
G0 Z2
G0 X129.540 Y36.830
G1 Z-2
G4 P0.1
G0 Z2
G0 X132.080 Y36.830
G1 Z-2
G4 P0.1
G0 Z2
G0 X132.080 Y45.720
G1 Z-2
G4 P0.1
G0 Z2
G0 X129.540 Y45.720
G1 Z-2
G4 P0.1
G0 Z2
G0 X129.540 Y54.610
G1 Z-2
G4 P0.1
G0 Z2
G0 X132.080 Y54.610
G1 Z-2
G4 P0.1
G0 Z2
G0 X132.080 Y64.770
G1 Z-2
G4 P0.1
G0 Z2
G0 X129.540 Y64.770
G1 Z-2
G4 P0.1
G0 Z2
G0 Z20
T02 M6 (T02 0.8000)
G4 P0.1
G0 Z2
G0 X119.380 Y59.690
G1 Z-2
G4 P0.1
G0 Z2
G0 X109.220 Y59.690
G1 Z-2
G4 P0.1
G0 Z2
G0 X24.765 Y57.150
G1 Z-2
G4 P0.1
G0 Z2
G0 X19.685 Y57.150
G1 Z-2
G4 P0.1
G0 Z2
G0 X19.685 Y69.850
G1 Z-2
G4 P0.1
G0 Z2
G0 X24.765 Y69.850
G1 Z-2
G4 P0.1
G0 Z2
G0 Z20
T03 M6 (T03 0.9000)
G4 P0.1
G0 Z2
G0 X109.220 Y73.025
G1 Z-2
G4 P0.1
G0 Z2
G0 X109.220 Y64.770
G1 Z-2
G4 P0.1
G0 Z2
G0 X109.220 Y54.610
G1 Z-2
G4 P0.1
G0 Z2
G0 X109.220 Y45.720
G1 Z-2
G4 P0.1
G0 Z2
G0 X109.220 Y36.830
G1 Z-2
G4 P0.1
G0 Z2
G0 X124.460 Y36.830
G1 Z-2
G4 P0.1
G0 Z2
G0 X124.460 Y45.720
G1 Z-2
G4 P0.1
G0 Z2
G0 X124.460 Y54.610
G1 Z-2
G4 P0.1
G0 Z2
G0 X124.460 Y64.770
G1 Z-2
G4 P0.1
G0 Z2
G0 X124.460 Y73.025
G1 Z-2
G4 P0.1
G0 Z2
G0 Z20
T04 M6 (T04 1.0000)
G4 P0.1
G0 Z2
G0 X130.810 Y73.025
G1 Z-2
G4 P0.1
G0 Z2
G0 X82.550 Y65.405
G1 Z-2
G4 P0.1
G0 Z2
G0 X82.550 Y81.280
G1 Z-2
G4 P0.1
G0 Z2
G0 X62.230 Y81.280
G1 Z-2
G4 P0.1
G0 Z2
G0 X33.655 Y66.040
G1 Z-2
G4 P0.1
G0 Z2
G0 X33.655 Y63.500
G1 Z-2
G4 P0.1
G0 Z2
G0 X33.655 Y60.960
G1 Z-2
G4 P0.1
G0 Z2
G0 Z20
T05 M6 (T05 1.1000)
G4 P0.1
G0 Z2
G0 X57.150 Y67.310
G1 Z-2
G4 P0.1
G0 Z2
G0 X30.480 Y81.915
G1 Z-2
G4 P0.1
G0 Z2
G0 X30.480 Y84.455
G1 Z-2
G4 P0.1
G0 Z2
G0 X30.480 Y86.995
G1 Z-2
G4 P0.1
G0 Z2
G0 X57.150 Y46.990
G1 Z-2
G4 P0.1
G0 Z2
G0 X41.148 Y33.020
G1 Z-2
G4 P0.1
G0 Z2
G0 X55.880 Y31.750
G1 Z-2
G4 P0.1
G0 Z2
G0 X55.880 Y29.210
G1 Z-2
G4 P0.1
G0 Z2
G0 X55.880 Y26.670
G1 Z-2
G4 P0.1
G0 Z2
G0 X52.070 Y22.225
G1 Z-2
G4 P0.1
G0 Z2
G0 X29.083 Y23.622
G1 Z-2
G4 P0.1
G0 Z2
G0 X19.939 Y37.846
G1 Z-2
G4 P0.1
G0 Z2
G0 X85.090 Y31.750
G1 Z-2
G4 P0.1
G0 Z2
G0 X85.090 Y29.210
G1 Z-2
G4 P0.1
G0 Z2
G0 X85.090 Y26.670
G1 Z-2
G4 P0.1
G0 Z2
G0 Z20
T06 M6 (T06 1.2000)
G4 P0.1
G0 Z2
G0 X88.900 Y6.350
G1 Z-2
G4 P0.1
G0 Z2
G0 X93.900 Y6.350
G1 Z-2
G4 P0.1
G0 Z2
G0 X98.900 Y6.350
G1 Z-2
G4 P0.1
G0 Z2
G0 X51.990 Y7.620
G1 Z-2
G4 P0.1
G0 Z2
G0 X46.990 Y7.620
G1 Z-2
G4 P0.1
G0 Z2
G0 X29.130 Y7.620
G1 Z-2
G4 P0.1
G0 Z2
G0 X24.130 Y7.620
G1 Z-2
G4 P0.1
G0 Z2
G0 X9.525 Y28.020
G1 Z-2
G4 P0.1
G0 Z2
G0 X9.525 Y33.020
G1 Z-2
G4 P0.1
G0 Z2
G0 X9.525 Y40.085
G1 Z-2
G4 P0.1
G0 Z2
G0 X9.525 Y45.085
G1 Z-2
G4 P0.1
G0 Z2
G0 X6.350 Y60.960
G1 Z-2
G4 P0.1
G0 Z2
G0 X6.350 Y64.770
G1 Z-2
G4 P0.1
G0 Z2
G0 X57.250 Y59.560
G1 Z-2
G4 P0.1
G0 Z2
G0 X62.290 Y59.560
G1 Z-2
G4 P0.1
G0 Z2
G0 X67.330 Y59.560
G1 Z-2
G4 P0.1
G0 Z2
G0 X67.330 Y52.000
G1 Z-2
G4 P0.1
G0 Z2
G0 X62.290 Y52.000
G1 Z-2
G4 P0.1
G0 Z2
G0 X57.250 Y52.000
G1 Z-2
G4 P0.1
G0 Z2
G0 X82.450 Y52.000
G1 Z-2
G4 P0.1
G0 Z2
G0 X82.450 Y59.560
G1 Z-2
G4 P0.1
G0 Z2
G0 X77.470 Y91.440
G1 Z-2
G4 P0.1
G0 Z2
G0 X72.470 Y91.440
G1 Z-2
G4 P0.1
G0 Z2
G0 X94.060 Y91.440
G1 Z-2
G4 P0.1
G0 Z2
G0 X99.060 Y91.440
G1 Z-2
G4 P0.1
G0 Z2
G0 X120.730 Y91.440
G1 Z-2
G4 P0.1
G0 Z2
G0 X125.730 Y91.440
G1 Z-2
G4 P0.1
G0 Z2
G0 Z20
T07 M6 (T07 3.0000)
G4 P0.1
G0 Z2
G0 X5.000 Y5.000
G1 Z-2
G4 P0.1
G0 Z2
G0 X70.866 Y29.210
G1 Z-2
G4 P0.1
G0 Z2
G0 X100.076 Y29.210
G1 Z-2
G4 P0.1
G0 Z2
G0 X145.000 Y5.000
G1 Z-2
G4 P0.1
G0 Z2
G0 X45.466 Y84.455
G1 Z-2
G4 P0.1
G0 Z2
G0 X5.000 Y95.000
G1 Z-2
G4 P0.1
G0 Z2
G0 X145.000 Y95.000
G1 Z-2
G4 P0.1
G0 Z2
G4 P0.1
G0 Z2
M30
