(Project clock_pulse_test )
(generated by iStivi python script drill+mill_genarator.py)
G71 G90
F500
G0 Z5
( T01 : 0.6000 )
( T03 : 0.8000 )
( T05 : 1.0000 )
( T06 : 3.2000 )
G0 Z20
T01 M6 (T01 0.6000)
G4 P0.1
G0 Z2
G0 X19.685 Y17.145
G1 Z-2
G4 P0.1
G0 Z2
G0 X22.225 Y17.145
G1 Z-2
G4 P0.1
G0 Z2
G0 Z20
T02 M6 (T02 0.8000)
G4 P0.1
G0 Z2
G0 X27.305 Y13.970
G1 Z-2
G4 P0.1
G0 Z2
G0 X27.305 Y8.890
G1 Z-2
G4 P0.1
G0 Z2
G0 X24.765 Y22.225
G1 Z-2
G4 P0.1
G0 Z2
G0 X17.780 Y22.225
G1 Z-2
G4 P0.1
G0 Z2
G0 X17.780 Y32.385
G1 Z-2
G4 P0.1
G0 Z2
G0 X24.765 Y32.385
G1 Z-2
G4 P0.1
G0 Z2
G0 X60.325 Y30.480
G1 Z-2
G4 P0.1
G0 Z2
G0 X69.850 Y36.830
G1 Z-2
G4 P0.1
G0 Z2
G0 X60.325 Y40.640
G1 Z-2
G4 P0.1
G0 Z2
G0 X80.010 Y36.830
G1 Z-2
G4 P0.1
G0 Z2
G0 X80.010 Y42.545
G1 Z-2
G4 P0.1
G0 Z2
G0 X77.470 Y42.545
G1 Z-2
G4 P0.1
G0 Z2
G0 X74.930 Y42.545
G1 Z-2
G4 P0.1
G0 Z2
G0 X74.295 Y30.480
G1 Z-2
G4 P0.1
G0 Z2
G0 X74.295 Y27.940
G1 Z-2
G4 P0.1
G0 Z2
G0 X74.295 Y25.400
G1 Z-2
G4 P0.1
G0 Z2
G0 X74.295 Y22.860
G1 Z-2
G4 P0.1
G0 Z2
G0 X69.850 Y22.860
G1 Z-2
G4 P0.1
G0 Z2
G0 X66.675 Y22.860
G1 Z-2
G4 P0.1
G0 Z2
G0 X66.675 Y20.320
G1 Z-2
G4 P0.1
G0 Z2
G0 X63.500 Y20.320
G1 Z-2
G4 P0.1
G0 Z2
G0 X66.675 Y17.780
G1 Z-2
G4 P0.1
G0 Z2
G0 X66.675 Y15.240
G1 Z-2
G4 P0.1
G0 Z2
G0 X66.675 Y12.700
G1 Z-2
G4 P0.1
G0 Z2
G0 X66.675 Y10.160
G1 Z-2
G4 P0.1
G0 Z2
G0 X66.675 Y7.620
G1 Z-2
G4 P0.1
G0 Z2
G0 X62.230 Y7.620
G1 Z-2
G4 P0.1
G0 Z2
G0 X74.295 Y7.620
G1 Z-2
G4 P0.1
G0 Z2
G0 X74.295 Y10.160
G1 Z-2
G4 P0.1
G0 Z2
G0 X74.295 Y12.700
G1 Z-2
G4 P0.1
G0 Z2
G0 X74.295 Y15.240
G1 Z-2
G4 P0.1
G0 Z2
G0 X74.295 Y17.780
G1 Z-2
G4 P0.1
G0 Z2
G0 X74.295 Y20.320
G1 Z-2
G4 P0.1
G0 Z2
G0 X81.915 Y20.320
G1 Z-2
G4 P0.1
G0 Z2
G0 X84.455 Y20.320
G1 Z-2
G4 P0.1
G0 Z2
G0 X84.455 Y17.780
G1 Z-2
G4 P0.1
G0 Z2
G0 X81.915 Y17.780
G1 Z-2
G4 P0.1
G0 Z2
G0 X81.915 Y15.240
G1 Z-2
G4 P0.1
G0 Z2
G0 X84.455 Y15.240
G1 Z-2
G4 P0.1
G0 Z2
G0 X84.455 Y12.700
G1 Z-2
G4 P0.1
G0 Z2
G0 X81.915 Y12.700
G1 Z-2
G4 P0.1
G0 Z2
G0 X81.915 Y10.160
G1 Z-2
G4 P0.1
G0 Z2
G0 X84.455 Y10.160
G1 Z-2
G4 P0.1
G0 Z2
G0 X84.455 Y22.860
G1 Z-2
G4 P0.1
G0 Z2
G0 X81.915 Y22.860
G1 Z-2
G4 P0.1
G0 Z2
G0 X81.915 Y25.400
G1 Z-2
G4 P0.1
G0 Z2
G0 X84.455 Y25.400
G1 Z-2
G4 P0.1
G0 Z2
G0 X84.455 Y27.940
G1 Z-2
G4 P0.1
G0 Z2
G0 X81.915 Y27.940
G1 Z-2
G4 P0.1
G0 Z2
G0 X66.675 Y27.940
G1 Z-2
G4 P0.1
G0 Z2
G0 X66.675 Y25.400
G1 Z-2
G4 P0.1
G0 Z2
G0 X66.675 Y30.480
G1 Z-2
G4 P0.1
G0 Z2
G0 X44.450 Y34.290
G1 Z-2
G4 P0.1
G0 Z2
G0 X35.179 Y14.478
G1 Z-2
G4 P0.1
G0 Z2
G0 X40.640 Y6.350
G1 Z-2
G4 P0.1
G0 Z2
G0 X43.180 Y6.350
G1 Z-2
G4 P0.1
G0 Z2
G0 X57.150 Y13.970
G1 Z-2
G4 P0.1
G0 Z2
G0 X48.260 Y19.050
G1 Z-2
G4 P0.1
G0 Z2
G0 X48.260 Y21.590
G1 Z-2
G4 P0.1
G0 Z2
G0 X48.260 Y24.130
G1 Z-2
G4 P0.1
G0 Z2
G0 X48.260 Y26.670
G1 Z-2
G4 P0.1
G0 Z2
G0 X48.260 Y29.210
G1 Z-2
G4 P0.1
G0 Z2
G0 X48.260 Y31.750
G1 Z-2
G4 P0.1
G0 Z2
G0 X48.260 Y34.290
G1 Z-2
G4 P0.1
G0 Z2
G0 X40.640 Y34.290
G1 Z-2
G4 P0.1
G0 Z2
G0 X40.640 Y31.750
G1 Z-2
G4 P0.1
G0 Z2
G0 X40.640 Y29.210
G1 Z-2
G4 P0.1
G0 Z2
G0 X40.640 Y26.670
G1 Z-2
G4 P0.1
G0 Z2
G0 X40.640 Y24.130
G1 Z-2
G4 P0.1
G0 Z2
G0 X40.640 Y21.590
G1 Z-2
G4 P0.1
G0 Z2
G0 X40.640 Y19.050
G1 Z-2
G4 P0.1
G0 Z2
G0 Z20
T05 M6 (T05 1.0000)
G4 P0.1
G0 Z2
G0 X13.970 Y12.660
G1 Z-2
G4 P0.1
G0 Z2
G0 X13.970 Y7.660
G1 Z-2
G4 P0.1
G0 Z2
G0 Z20
T06 M6 (T06 3.2000)
G4 P0.1
G0 Z2
G0 X5.000 Y5.000
G1 Z-2
G4 P0.1
G0 Z2
G0 X5.000 Y45.000
G1 Z-2
G4 P0.1
G0 Z2
G0 X95.000 Y45.000
G1 Z-2
G4 P0.1
G0 Z2
G0 X95.000 Y5.000
G1 Z-2
G4 P0.1
G0 Z2
G4 P0.1
G0 Z2
M30
