(Project clock_pulse_test )
(generated by iStivi python script drill+mill_genarator.py)
G71 G90
F500
G0 Z5
( T01 : 0.4000 )
( T02 : 0.6000 )
( T03 : 0.8000 )
( T04 : 1.0000 )
( T05 : 3.2000 )
G0 Z20
T01 M6 (T01 0.4000)
G4 P0.1
G0 Z2
G0 X22.860 Y29.845
G1 Z-2
G4 P0.1
G0 Z2
G0 X25.400 Y29.845
G1 Z-2
G4 P0.1
G0 Z2
G0 Z20
T02 M6 (T02 0.6000)
G4 P0.1
G0 Z2
G0 X31.750 Y32.385
G1 Z-2
G4 P0.1
G0 Z2
G0 X31.750 Y37.465
G1 Z-2
G4 P0.1
G0 Z2
G0 X29.845 Y25.400
G1 Z-2
G4 P0.1
G0 Z2
G0 X17.780 Y25.400
G1 Z-2
G4 P0.1
G0 Z2
G0 X17.780 Y15.240
G1 Z-2
G4 P0.1
G0 Z2
G0 X29.845 Y15.240
G1 Z-2
G4 P0.1
G0 Z2
G0 X55.245 Y29.845
G1 Z-2
G4 P0.1
G0 Z2
G0 X74.295 Y39.370
G1 Z-2
G4 P0.1
G0 Z2
G0 X84.455 Y39.370
G1 Z-2
G4 P0.1
G0 Z2
G0 X55.245 Y40.005
G1 Z-2
G4 P0.1
G0 Z2
G0 Z20
T03 M6 (T03 0.8000)
G4 P0.1
G0 Z2
G0 X64.770 Y43.815
G1 Z-2
G4 P0.1
G0 Z2
G0 X67.310 Y43.815
G1 Z-2
G4 P0.1
G0 Z2
G0 X69.850 Y43.815
G1 Z-2
G4 P0.1
G0 Z2
G0 X86.995 Y33.020
G1 Z-2
G4 P0.1
G0 Z2
G0 X89.535 Y33.020
G1 Z-2
G4 P0.1
G0 Z2
G0 X89.535 Y30.480
G1 Z-2
G4 P0.1
G0 Z2
G0 X86.995 Y30.480
G1 Z-2
G4 P0.1
G0 Z2
G0 X86.995 Y27.940
G1 Z-2
G4 P0.1
G0 Z2
G0 X89.535 Y27.940
G1 Z-2
G4 P0.1
G0 Z2
G0 X89.535 Y25.400
G1 Z-2
G4 P0.1
G0 Z2
G0 X86.995 Y25.400
G1 Z-2
G4 P0.1
G0 Z2
G0 X86.995 Y22.860
G1 Z-2
G4 P0.1
G0 Z2
G0 X89.535 Y22.860
G1 Z-2
G4 P0.1
G0 Z2
G0 X89.535 Y20.320
G1 Z-2
G4 P0.1
G0 Z2
G0 X86.995 Y20.320
G1 Z-2
G4 P0.1
G0 Z2
G0 X86.995 Y17.780
G1 Z-2
G4 P0.1
G0 Z2
G0 X89.535 Y17.780
G1 Z-2
G4 P0.1
G0 Z2
G0 X89.535 Y15.240
G1 Z-2
G4 P0.1
G0 Z2
G0 X86.995 Y15.240
G1 Z-2
G4 P0.1
G0 Z2
G0 X73.025 Y14.605
G1 Z-2
G4 P0.1
G0 Z2
G0 X73.025 Y12.065
G1 Z-2
G4 P0.1
G0 Z2
G0 X73.025 Y9.525
G1 Z-2
G4 P0.1
G0 Z2
G0 X73.025 Y6.985
G1 Z-2
G4 P0.1
G0 Z2
G0 X65.405 Y6.985
G1 Z-2
G4 P0.1
G0 Z2
G0 X65.405 Y9.525
G1 Z-2
G4 P0.1
G0 Z2
G0 X65.405 Y12.065
G1 Z-2
G4 P0.1
G0 Z2
G0 X65.405 Y14.605
G1 Z-2
G4 P0.1
G0 Z2
G0 X65.405 Y17.145
G1 Z-2
G4 P0.1
G0 Z2
G0 X65.405 Y19.685
G1 Z-2
G4 P0.1
G0 Z2
G0 X65.405 Y22.225
G1 Z-2
G4 P0.1
G0 Z2
G0 X65.405 Y24.765
G1 Z-2
G4 P0.1
G0 Z2
G0 X65.405 Y27.305
G1 Z-2
G4 P0.1
G0 Z2
G0 X65.405 Y29.845
G1 Z-2
G4 P0.1
G0 Z2
G0 X73.025 Y29.845
G1 Z-2
G4 P0.1
G0 Z2
G0 X73.025 Y27.305
G1 Z-2
G4 P0.1
G0 Z2
G0 X73.025 Y24.765
G1 Z-2
G4 P0.1
G0 Z2
G0 X73.025 Y22.225
G1 Z-2
G4 P0.1
G0 Z2
G0 X73.025 Y19.685
G1 Z-2
G4 P0.1
G0 Z2
G0 X73.025 Y17.145
G1 Z-2
G4 P0.1
G0 Z2
G0 X57.531 Y19.050
G1 Z-2
G4 P0.1
G0 Z2
G0 X41.275 Y43.815
G1 Z-2
G4 P0.1
G0 Z2
G0 X38.735 Y43.815
G1 Z-2
G4 P0.1
G0 Z2
G0 Z20
T04 M6 (T04 1.0000)
G4 P0.1
G0 Z2
G0 X15.875 Y37.425
G1 Z-2
G4 P0.1
G0 Z2
G0 X15.875 Y32.425
G1 Z-2
G4 P0.1
G0 Z2
G0 Z20
T05 M6 (T05 3.2000)
G4 P0.1
G0 Z2
G0 X5.000 Y5.000
G1 Z-2
G4 P0.1
G0 Z2
G0 X5.000 Y45.000
G1 Z-2
G4 P0.1
G0 Z2
G0 X95.000 Y45.000
G1 Z-2
G4 P0.1
G0 Z2
G0 X95.000 Y5.000
G1 Z-2
G4 P0.1
G0 Z2
G4 P0.1
G0 Z2
M30
