(Project clock_pulse_test )
(generated by iStivi python script drill+mill_genarator.py)
G71 G90
F500
G0 Z5
( T01 : 0.4000 )
( T02 : 0.6000 )
( T03 : 0.8000 )
( T04 : 1.0000 )
( T05 : 3.2000 )
G0 Z25
T01 M6 (T01 0.4000)
M3
G90 G81 G99 X10.400 Y29.845 Z-3 R3
G90 G81 G99 X12.940 Y29.845 Z-3 R3
G0 Z25
T02 M6 (T02 0.6000)
M3
G90 G81 G99 X16.750 Y32.385 Z-3 R3
G90 G81 G99 X16.750 Y37.465 Z-3 R3
G90 G81 G99 X18.655 Y25.400 Z-3 R3
G90 G81 G99 X6.590 Y25.400 Z-3 R3
G90 G81 G99 X6.590 Y15.240 Z-3 R3
G90 G81 G99 X18.655 Y15.240 Z-3 R3
G90 G81 G99 X40.245 Y29.845 Z-3 R3
G90 G81 G99 X40.245 Y40.005 Z-3 R3
G90 G81 G99 X59.295 Y39.370 Z-3 R3
G90 G81 G99 X69.455 Y39.370 Z-3 R3
G0 Z25
T03 M6 (T03 0.8000)
M3
G90 G81 G99 X71.995 Y33.020 Z-3 R3
G90 G81 G99 X74.535 Y33.020 Z-3 R3
G90 G81 G99 X74.535 Y30.480 Z-3 R3
G90 G81 G99 X71.995 Y30.480 Z-3 R3
G90 G81 G99 X71.995 Y27.940 Z-3 R3
G90 G81 G99 X74.535 Y27.940 Z-3 R3
G90 G81 G99 X74.535 Y25.400 Z-3 R3
G90 G81 G99 X71.995 Y25.400 Z-3 R3
G90 G81 G99 X71.995 Y22.860 Z-3 R3
G90 G81 G99 X74.535 Y22.860 Z-3 R3
G90 G81 G99 X74.535 Y20.320 Z-3 R3
G90 G81 G99 X71.995 Y20.320 Z-3 R3
G90 G81 G99 X71.995 Y17.780 Z-3 R3
G90 G81 G99 X74.535 Y17.780 Z-3 R3
G90 G81 G99 X74.535 Y15.240 Z-3 R3
G90 G81 G99 X71.995 Y15.240 Z-3 R3
G90 G81 G99 X58.025 Y14.605 Z-3 R3
G90 G81 G99 X58.025 Y12.065 Z-3 R3
G90 G81 G99 X58.025 Y9.525 Z-3 R3
G90 G81 G99 X58.025 Y6.985 Z-3 R3
G90 G81 G99 X50.405 Y6.985 Z-3 R3
G90 G81 G99 X50.405 Y9.525 Z-3 R3
G90 G81 G99 X50.405 Y12.065 Z-3 R3
G90 G81 G99 X50.405 Y14.605 Z-3 R3
G90 G81 G99 X50.405 Y17.145 Z-3 R3
G90 G81 G99 X50.405 Y19.685 Z-3 R3
G90 G81 G99 X50.405 Y22.225 Z-3 R3
G90 G81 G99 X50.405 Y24.765 Z-3 R3
G90 G81 G99 X50.405 Y27.305 Z-3 R3
G90 G81 G99 X50.405 Y29.845 Z-3 R3
G90 G81 G99 X58.025 Y29.845 Z-3 R3
G90 G81 G99 X58.025 Y27.305 Z-3 R3
G90 G81 G99 X58.025 Y24.765 Z-3 R3
G90 G81 G99 X58.025 Y22.225 Z-3 R3
G90 G81 G99 X58.025 Y19.685 Z-3 R3
G90 G81 G99 X58.025 Y17.145 Z-3 R3
G90 G81 G99 X42.531 Y19.050 Z-3 R3
G90 G81 G99 X49.770 Y43.815 Z-3 R3
G90 G81 G99 X52.310 Y43.815 Z-3 R3
G90 G81 G99 X54.850 Y43.815 Z-3 R3
G90 G81 G99 X26.275 Y43.815 Z-3 R3
G90 G81 G99 X23.735 Y43.815 Z-3 R3
G0 Z25
T04 M6 (T04 1.0000)
M3
G90 G81 G99 X5.955 Y37.425 Z-3 R3
G90 G81 G99 X5.955 Y32.425 Z-3 R3
G0 Z25
T05 M6 (T05 3.2000)
M3
G90 G81 G99 X5.000 Y5.000 Z-3 R3
G90 G81 G99 X5.000 Y45.000 Z-3 R3
G90 G81 G99 X80.000 Y45.000 Z-3 R3
G90 G81 G99 X80.000 Y5.000 Z-3 R3
M30
