(Project counter_test )
(generated by iStivi python script drill+mill_genarator.py)
G71 G90
F500
G0 Z5
( T01 : 0.6000 )
( T02 : 0.8000 )
( T04 : 3.0000 )
G0 Z20
T01 M6 (T01 0.6000)
G4 P0.1
G0 Z2
G0 X21.082 Y13.970
G1 Z-2
G4 P0.1
G0 Z2
G0 X24.638 Y13.970
G1 Z-2
G4 P0.1
G0 Z2
G0 X5.080 Y24.130
G1 Z-2
G4 P0.1
G0 Z2
G0 X5.080 Y31.750
G1 Z-2
G4 P0.1
G0 Z2
G0 Z20
T02 M6 (T02 0.8000)
G4 P0.1
G0 Z2
G0 X3.810 Y38.100
G1 Z-2
G4 P0.1
G0 Z2
G0 X3.810 Y40.640
G1 Z-2
G4 P0.1
G0 Z2
G0 X20.193 Y47.371
G1 Z-2
G4 P0.1
G0 Z2
G0 X24.765 Y41.275
G1 Z-2
G4 P0.1
G0 Z2
G0 X25.654 Y36.449
G1 Z-2
G4 P0.1
G0 Z2
G0 X22.479 Y36.449
G1 Z-2
G4 P0.1
G0 Z2
G0 X20.574 Y34.671
G1 Z-2
G4 P0.1
G0 Z2
G0 X23.876 Y28.575
G1 Z-2
G4 P0.1
G0 Z2
G0 X24.892 Y21.717
G1 Z-2
G4 P0.1
G0 Z2
G0 X40.259 Y31.623
G1 Z-2
G4 P0.1
G0 Z2
G0 X56.515 Y20.574
G1 Z-2
G4 P0.1
G0 Z2
G0 X59.690 Y3.810
G1 Z-2
G4 P0.1
G0 Z2
G0 X49.530 Y3.810
G1 Z-2
G4 P0.1
G0 Z2
G0 X46.990 Y3.810
G1 Z-2
G4 P0.1
G0 Z2
G0 X44.450 Y3.810
G1 Z-2
G4 P0.1
G0 Z2
G0 X38.100 Y3.810
G1 Z-2
G4 P0.1
G0 Z2
G0 X29.210 Y3.810
G1 Z-2
G4 P0.1
G0 Z2
G0 X26.670 Y3.810
G1 Z-2
G4 P0.1
G0 Z2
G0 X62.103 Y38.608
G1 Z-2
G4 P0.1
G0 Z2
G0 X61.849 Y42.418
G1 Z-2
G4 P0.1
G0 Z2
G0 X80.772 Y34.544
G1 Z-2
G4 P0.1
G0 Z2
G0 X82.804 Y27.940
G1 Z-2
G4 P0.1
G0 Z2
G0 X82.296 Y25.400
G1 Z-2
G4 P0.1
G0 Z2
G0 X80.518 Y18.796
G1 Z-2
G4 P0.1
G0 Z2
G0 X93.980 Y17.780
G1 Z-2
G4 P0.1
G0 Z2
G0 X93.980 Y20.320
G1 Z-2
G4 P0.1
G0 Z2
G0 X93.980 Y15.240
G1 Z-2
G4 P0.1
G0 Z2
G0 X93.980 Y12.700
G1 Z-2
G4 P0.1
G0 Z2
G0 X93.980 Y25.400
G1 Z-2
G4 P0.1
G0 Z2
G0 X93.980 Y27.940
G1 Z-2
G4 P0.1
G0 Z2
G0 X93.980 Y30.480
G1 Z-2
G4 P0.1
G0 Z2
G0 X93.980 Y35.560
G1 Z-2
G4 P0.1
G0 Z2
G0 X93.980 Y38.100
G1 Z-2
G4 P0.1
G0 Z2
G0 X93.980 Y43.180
G1 Z-2
G4 P0.1
G0 Z2
G0 X93.980 Y45.720
G1 Z-2
G4 P0.1
G0 Z2
G0 X93.980 Y48.260
G1 Z-2
G4 P0.1
G0 Z2
G0 X93.980 Y50.800
G1 Z-2
G4 P0.1
G0 Z2
G0 X93.980 Y55.880
G1 Z-2
G4 P0.1
G0 Z2
G0 X93.980 Y58.420
G1 Z-2
G4 P0.1
G0 Z2
G0 X93.980 Y60.960
G1 Z-2
G4 P0.1
G0 Z2
G0 X86.360 Y69.850
G1 Z-2
G4 P0.1
G0 Z2
G0 X83.820 Y69.850
G1 Z-2
G4 P0.1
G0 Z2
G0 X73.660 Y69.850
G1 Z-2
G4 P0.1
G0 Z2
G0 X71.120 Y69.850
G1 Z-2
G4 P0.1
G0 Z2
G0 X68.580 Y69.850
G1 Z-2
G4 P0.1
G0 Z2
G0 X66.040 Y69.850
G1 Z-2
G4 P0.1
G0 Z2
G0 X55.880 Y69.850
G1 Z-2
G4 P0.1
G0 Z2
G0 X53.340 Y69.850
G1 Z-2
G4 P0.1
G0 Z2
G0 X32.639 Y55.499
G1 Z-2
G4 P0.1
G0 Z2
G0 X38.227 Y46.863
G1 Z-2
G4 P0.1
G0 Z2
G0 X82.550 Y50.546
G1 Z-2
G4 P0.1
G0 Z2
G0 X81.280 Y48.260
G1 Z-2
G4 P0.1
G0 Z2
G0 X78.740 Y48.260
G1 Z-2
G4 P0.1
G0 Z2
G0 X76.200 Y48.260
G1 Z-2
G4 P0.1
G0 Z2
G0 X73.660 Y48.260
G1 Z-2
G4 P0.1
G0 Z2
G0 X71.120 Y48.260
G1 Z-2
G4 P0.1
G0 Z2
G0 X68.580 Y48.260
G1 Z-2
G4 P0.1
G0 Z2
G0 X68.580 Y54.610
G1 Z-2
G4 P0.1
G0 Z2
G0 X71.120 Y54.610
G1 Z-2
G4 P0.1
G0 Z2
G0 X73.660 Y54.610
G1 Z-2
G4 P0.1
G0 Z2
G0 X76.200 Y54.610
G1 Z-2
G4 P0.1
G0 Z2
G0 X78.740 Y54.610
G1 Z-2
G4 P0.1
G0 Z2
G0 X81.280 Y54.610
G1 Z-2
G4 P0.1
G0 Z2
G0 X83.820 Y54.610
G1 Z-2
G4 P0.1
G0 Z2
G0 X83.820 Y48.260
G1 Z-2
G4 P0.1
G0 Z2
G0 X83.820 Y40.640
G1 Z-2
G4 P0.1
G0 Z2
G0 X81.280 Y40.640
G1 Z-2
G4 P0.1
G0 Z2
G0 X78.740 Y40.640
G1 Z-2
G4 P0.1
G0 Z2
G0 X76.200 Y40.640
G1 Z-2
G4 P0.1
G0 Z2
G0 X73.660 Y40.640
G1 Z-2
G4 P0.1
G0 Z2
G0 X71.120 Y40.640
G1 Z-2
G4 P0.1
G0 Z2
G0 X68.580 Y40.640
G1 Z-2
G4 P0.1
G0 Z2
G0 X58.420 Y36.830
G1 Z-2
G4 P0.1
G0 Z2
G0 X55.880 Y36.830
G1 Z-2
G4 P0.1
G0 Z2
G0 X53.340 Y36.830
G1 Z-2
G4 P0.1
G0 Z2
G0 X50.800 Y36.830
G1 Z-2
G4 P0.1
G0 Z2
G0 X48.260 Y36.830
G1 Z-2
G4 P0.1
G0 Z2
G0 X45.720 Y36.830
G1 Z-2
G4 P0.1
G0 Z2
G0 X43.180 Y36.830
G1 Z-2
G4 P0.1
G0 Z2
G0 X43.180 Y44.450
G1 Z-2
G4 P0.1
G0 Z2
G0 X45.720 Y44.450
G1 Z-2
G4 P0.1
G0 Z2
G0 X48.260 Y44.450
G1 Z-2
G4 P0.1
G0 Z2
G0 X50.800 Y44.450
G1 Z-2
G4 P0.1
G0 Z2
G0 X53.340 Y44.450
G1 Z-2
G4 P0.1
G0 Z2
G0 X55.880 Y44.450
G1 Z-2
G4 P0.1
G0 Z2
G0 X58.420 Y44.450
G1 Z-2
G4 P0.1
G0 Z2
G0 X57.150 Y55.880
G1 Z-2
G4 P0.1
G0 Z2
G0 X59.690 Y55.880
G1 Z-2
G4 P0.1
G0 Z2
G0 X54.610 Y55.880
G1 Z-2
G4 P0.1
G0 Z2
G0 X52.070 Y55.880
G1 Z-2
G4 P0.1
G0 Z2
G0 X49.530 Y55.880
G1 Z-2
G4 P0.1
G0 Z2
G0 X46.990 Y55.880
G1 Z-2
G4 P0.1
G0 Z2
G0 X44.450 Y55.880
G1 Z-2
G4 P0.1
G0 Z2
G0 X44.450 Y63.500
G1 Z-2
G4 P0.1
G0 Z2
G0 X46.990 Y63.500
G1 Z-2
G4 P0.1
G0 Z2
G0 X49.530 Y63.500
G1 Z-2
G4 P0.1
G0 Z2
G0 X52.070 Y63.500
G1 Z-2
G4 P0.1
G0 Z2
G0 X54.610 Y63.500
G1 Z-2
G4 P0.1
G0 Z2
G0 X57.150 Y63.500
G1 Z-2
G4 P0.1
G0 Z2
G0 X59.690 Y63.500
G1 Z-2
G4 P0.1
G0 Z2
G0 X68.580 Y62.230
G1 Z-2
G4 P0.1
G0 Z2
G0 X71.120 Y62.230
G1 Z-2
G4 P0.1
G0 Z2
G0 X73.660 Y62.230
G1 Z-2
G4 P0.1
G0 Z2
G0 X76.200 Y62.230
G1 Z-2
G4 P0.1
G0 Z2
G0 X78.740 Y62.230
G1 Z-2
G4 P0.1
G0 Z2
G0 X81.280 Y62.230
G1 Z-2
G4 P0.1
G0 Z2
G0 X83.820 Y62.230
G1 Z-2
G4 P0.1
G0 Z2
G0 X83.820 Y30.480
G1 Z-2
G4 P0.1
G0 Z2
G0 X81.280 Y30.480
G1 Z-2
G4 P0.1
G0 Z2
G0 X78.740 Y30.480
G1 Z-2
G4 P0.1
G0 Z2
G0 X76.200 Y30.480
G1 Z-2
G4 P0.1
G0 Z2
G0 X73.660 Y30.480
G1 Z-2
G4 P0.1
G0 Z2
G0 X71.120 Y30.480
G1 Z-2
G4 P0.1
G0 Z2
G0 X68.580 Y30.480
G1 Z-2
G4 P0.1
G0 Z2
G0 X68.580 Y22.860
G1 Z-2
G4 P0.1
G0 Z2
G0 X71.120 Y22.860
G1 Z-2
G4 P0.1
G0 Z2
G0 X73.660 Y22.860
G1 Z-2
G4 P0.1
G0 Z2
G0 X76.200 Y22.860
G1 Z-2
G4 P0.1
G0 Z2
G0 X78.740 Y22.860
G1 Z-2
G4 P0.1
G0 Z2
G0 X81.280 Y22.860
G1 Z-2
G4 P0.1
G0 Z2
G0 X83.820 Y22.860
G1 Z-2
G4 P0.1
G0 Z2
G0 X83.820 Y15.240
G1 Z-2
G4 P0.1
G0 Z2
G0 X81.280 Y15.240
G1 Z-2
G4 P0.1
G0 Z2
G0 X78.740 Y15.240
G1 Z-2
G4 P0.1
G0 Z2
G0 X76.200 Y15.240
G1 Z-2
G4 P0.1
G0 Z2
G0 X73.660 Y15.240
G1 Z-2
G4 P0.1
G0 Z2
G0 X71.120 Y15.240
G1 Z-2
G4 P0.1
G0 Z2
G0 X68.580 Y15.240
G1 Z-2
G4 P0.1
G0 Z2
G0 X68.580 Y7.620
G1 Z-2
G4 P0.1
G0 Z2
G0 X71.120 Y7.620
G1 Z-2
G4 P0.1
G0 Z2
G0 X73.660 Y7.620
G1 Z-2
G4 P0.1
G0 Z2
G0 X76.200 Y7.620
G1 Z-2
G4 P0.1
G0 Z2
G0 X78.740 Y7.620
G1 Z-2
G4 P0.1
G0 Z2
G0 X81.280 Y7.620
G1 Z-2
G4 P0.1
G0 Z2
G0 X83.820 Y7.620
G1 Z-2
G4 P0.1
G0 Z2
G0 X58.420 Y17.780
G1 Z-2
G4 P0.1
G0 Z2
G0 X55.880 Y17.780
G1 Z-2
G4 P0.1
G0 Z2
G0 X53.340 Y17.780
G1 Z-2
G4 P0.1
G0 Z2
G0 X50.800 Y17.780
G1 Z-2
G4 P0.1
G0 Z2
G0 X48.260 Y17.780
G1 Z-2
G4 P0.1
G0 Z2
G0 X45.720 Y17.780
G1 Z-2
G4 P0.1
G0 Z2
G0 X43.180 Y17.780
G1 Z-2
G4 P0.1
G0 Z2
G0 X43.180 Y25.400
G1 Z-2
G4 P0.1
G0 Z2
G0 X45.720 Y25.400
G1 Z-2
G4 P0.1
G0 Z2
G0 X48.260 Y25.400
G1 Z-2
G4 P0.1
G0 Z2
G0 X50.800 Y25.400
G1 Z-2
G4 P0.1
G0 Z2
G0 X53.340 Y25.400
G1 Z-2
G4 P0.1
G0 Z2
G0 X55.880 Y25.400
G1 Z-2
G4 P0.1
G0 Z2
G0 X58.420 Y25.400
G1 Z-2
G4 P0.1
G0 Z2
G0 X29.210 Y55.880
G1 Z-2
G4 P0.1
G0 Z2
G0 X26.670 Y55.880
G1 Z-2
G4 P0.1
G0 Z2
G0 X24.130 Y55.880
G1 Z-2
G4 P0.1
G0 Z2
G0 X21.590 Y55.880
G1 Z-2
G4 P0.1
G0 Z2
G0 X19.050 Y55.880
G1 Z-2
G4 P0.1
G0 Z2
G0 X16.510 Y55.880
G1 Z-2
G4 P0.1
G0 Z2
G0 X13.970 Y55.880
G1 Z-2
G4 P0.1
G0 Z2
G0 X13.970 Y63.500
G1 Z-2
G4 P0.1
G0 Z2
G0 X16.510 Y63.500
G1 Z-2
G4 P0.1
G0 Z2
G0 X19.050 Y63.500
G1 Z-2
G4 P0.1
G0 Z2
G0 X21.590 Y63.500
G1 Z-2
G4 P0.1
G0 Z2
G0 X24.130 Y63.500
G1 Z-2
G4 P0.1
G0 Z2
G0 X26.670 Y63.500
G1 Z-2
G4 P0.1
G0 Z2
G0 X29.210 Y63.500
G1 Z-2
G4 P0.1
G0 Z2
G0 Z20
T04 M6 (T04 3.0000)
G4 P0.1
G0 Z2
G0 X5.000 Y5.000
G1 Z-2
G4 P0.1
G0 Z2
G0 X5.000 Y70.000
G1 Z-2
G4 P0.1
G0 Z2
G0 X95.000 Y70.000
G1 Z-2
G4 P0.1
G0 Z2
G0 X95.000 Y5.000
G1 Z-2
G4 P0.1
G0 Z2
G4 P0.1
G0 Z2
M30
