(Project counter_test )
(generated by iStivi python script drill+mill_genarator.py)
G71 G90
F500
G0 Z5
( T01 : 0.6000 )
( T02 : 0.8000 )
( T03 : 0.8128 )
G0 Z20
T01 M6 (T01 0.6000)
G4 P0.1
G0 Z2
G0 X29.972 Y22.860
G1 Z-2
G4 P0.1
G0 Z2
G0 X33.528 Y22.860
G1 Z-2
G4 P0.1
G0 Z2
G0 Z20
T02 M6 (T02 0.8000)
G4 P0.1
G0 Z2
G0 X29.845 Y9.525
G1 Z-2
G4 P0.1
G0 Z2
G0 X32.385 Y9.525
G1 Z-2
G4 P0.1
G0 Z2
G0 X40.005 Y9.525
G1 Z-2
G4 P0.1
G0 Z2
G0 X36.830 Y20.193
G1 Z-2
G4 P0.1
G0 Z2
G0 X50.165 Y29.845
G1 Z-2
G4 P0.1
G0 Z2
G0 X57.023 Y36.576
G1 Z-2
G4 P0.1
G0 Z2
G0 X52.197 Y40.767
G1 Z-2
G4 P0.1
G0 Z2
G0 X39.497 Y46.736
G1 Z-2
G4 P0.1
G0 Z2
G0 X16.002 Y43.053
G1 Z-2
G4 P0.1
G0 Z2
G0 X10.795 Y41.910
G1 Z-2
G4 P0.1
G0 Z2
G0 X8.255 Y41.910
G1 Z-2
G4 P0.1
G0 Z2
G0 X8.255 Y44.450
G1 Z-2
G4 P0.1
G0 Z2
G0 X10.795 Y44.450
G1 Z-2
G4 P0.1
G0 Z2
G0 X10.795 Y46.990
G1 Z-2
G4 P0.1
G0 Z2
G0 X8.255 Y46.990
G1 Z-2
G4 P0.1
G0 Z2
G0 X8.255 Y49.530
G1 Z-2
G4 P0.1
G0 Z2
G0 X10.795 Y49.530
G1 Z-2
G4 P0.1
G0 Z2
G0 X9.525 Y55.245
G1 Z-2
G4 P0.1
G0 Z2
G0 X9.525 Y57.785
G1 Z-2
G4 P0.1
G0 Z2
G0 X23.749 Y65.151
G1 Z-2
G4 P0.1
G0 Z2
G0 X34.671 Y69.469
G1 Z-2
G4 P0.1
G0 Z2
G0 X74.803 Y44.831
G1 Z-2
G4 P0.1
G0 Z2
G0 X76.835 Y48.895
G1 Z-2
G4 P0.1
G0 Z2
G0 X76.835 Y52.070
G1 Z-2
G4 P0.1
G0 Z2
G0 X88.265 Y52.070
G1 Z-2
G4 P0.1
G0 Z2
G0 X88.265 Y49.530
G1 Z-2
G4 P0.1
G0 Z2
G0 X88.265 Y46.990
G1 Z-2
G4 P0.1
G0 Z2
G0 X88.265 Y44.450
G1 Z-2
G4 P0.1
G0 Z2
G0 X88.265 Y38.735
G1 Z-2
G4 P0.1
G0 Z2
G0 X88.265 Y36.195
G1 Z-2
G4 P0.1
G0 Z2
G0 X88.265 Y30.480
G1 Z-2
G4 P0.1
G0 Z2
G0 X88.265 Y27.940
G1 Z-2
G4 P0.1
G0 Z2
G0 X88.265 Y25.400
G1 Z-2
G4 P0.1
G0 Z2
G0 X88.265 Y20.320
G1 Z-2
G4 P0.1
G0 Z2
G0 X88.265 Y17.780
G1 Z-2
G4 P0.1
G0 Z2
G0 X88.265 Y15.240
G1 Z-2
G4 P0.1
G0 Z2
G0 X88.265 Y12.700
G1 Z-2
G4 P0.1
G0 Z2
G0 X76.073 Y14.986
G1 Z-2
G4 P0.1
G0 Z2
G0 X76.200 Y18.415
G1 Z-2
G4 P0.1
G0 Z2
G0 X76.200 Y21.590
G1 Z-2
G4 P0.1
G0 Z2
G0 X75.311 Y40.259
G1 Z-2
G4 P0.1
G0 Z2
G0 X88.265 Y57.150
G1 Z-2
G4 P0.1
G0 Z2
G0 X88.265 Y59.690
G1 Z-2
G4 P0.1
G0 Z2
G0 X88.265 Y62.230
G1 Z-2
G4 P0.1
G0 Z2
G0 X10.795 Y26.670
G1 Z-2
G4 P0.1
G0 Z2
G0 X8.255 Y26.670
G1 Z-2
G4 P0.1
G0 Z2
G0 X8.255 Y24.130
G1 Z-2
G4 P0.1
G0 Z2
G0 X10.795 Y24.130
G1 Z-2
G4 P0.1
G0 Z2
G0 X9.525 Y33.655
G1 Z-2
G4 P0.1
G0 Z2
G0 X27.305 Y34.925
G1 Z-2
G4 P0.1
G0 Z2
G0 X29.845 Y34.925
G1 Z-2
G4 P0.1
G0 Z2
G0 X32.385 Y34.925
G1 Z-2
G4 P0.1
G0 Z2
G0 X34.925 Y34.925
G1 Z-2
G4 P0.1
G0 Z2
G0 X37.465 Y34.925
G1 Z-2
G4 P0.1
G0 Z2
G0 X40.005 Y34.925
G1 Z-2
G4 P0.1
G0 Z2
G0 X42.545 Y34.925
G1 Z-2
G4 P0.1
G0 Z2
G0 X42.545 Y42.545
G1 Z-2
G4 P0.1
G0 Z2
G0 X40.005 Y42.545
G1 Z-2
G4 P0.1
G0 Z2
G0 X37.465 Y42.545
G1 Z-2
G4 P0.1
G0 Z2
G0 X34.925 Y42.545
G1 Z-2
G4 P0.1
G0 Z2
G0 X32.385 Y42.545
G1 Z-2
G4 P0.1
G0 Z2
G0 X29.845 Y42.545
G1 Z-2
G4 P0.1
G0 Z2
G0 X27.305 Y42.545
G1 Z-2
G4 P0.1
G0 Z2
G0 X27.305 Y53.975
G1 Z-2
G4 P0.1
G0 Z2
G0 X29.845 Y53.975
G1 Z-2
G4 P0.1
G0 Z2
G0 X32.385 Y53.975
G1 Z-2
G4 P0.1
G0 Z2
G0 X34.925 Y53.975
G1 Z-2
G4 P0.1
G0 Z2
G0 X37.465 Y53.975
G1 Z-2
G4 P0.1
G0 Z2
G0 X40.005 Y53.975
G1 Z-2
G4 P0.1
G0 Z2
G0 X42.545 Y53.975
G1 Z-2
G4 P0.1
G0 Z2
G0 X42.545 Y61.595
G1 Z-2
G4 P0.1
G0 Z2
G0 X40.005 Y61.595
G1 Z-2
G4 P0.1
G0 Z2
G0 X37.465 Y61.595
G1 Z-2
G4 P0.1
G0 Z2
G0 X34.925 Y61.595
G1 Z-2
G4 P0.1
G0 Z2
G0 X32.385 Y61.595
G1 Z-2
G4 P0.1
G0 Z2
G0 X29.845 Y61.595
G1 Z-2
G4 P0.1
G0 Z2
G0 X27.305 Y61.595
G1 Z-2
G4 P0.1
G0 Z2
G0 X56.515 Y62.865
G1 Z-2
G4 P0.1
G0 Z2
G0 X59.055 Y62.865
G1 Z-2
G4 P0.1
G0 Z2
G0 X61.595 Y62.865
G1 Z-2
G4 P0.1
G0 Z2
G0 X64.135 Y62.865
G1 Z-2
G4 P0.1
G0 Z2
G0 X66.675 Y62.865
G1 Z-2
G4 P0.1
G0 Z2
G0 X69.215 Y62.865
G1 Z-2
G4 P0.1
G0 Z2
G0 X71.755 Y62.865
G1 Z-2
G4 P0.1
G0 Z2
G0 X71.755 Y55.245
G1 Z-2
G4 P0.1
G0 Z2
G0 X69.215 Y55.245
G1 Z-2
G4 P0.1
G0 Z2
G0 X66.675 Y55.245
G1 Z-2
G4 P0.1
G0 Z2
G0 X64.135 Y55.245
G1 Z-2
G4 P0.1
G0 Z2
G0 X61.595 Y55.245
G1 Z-2
G4 P0.1
G0 Z2
G0 X59.055 Y55.245
G1 Z-2
G4 P0.1
G0 Z2
G0 X56.515 Y55.245
G1 Z-2
G4 P0.1
G0 Z2
G0 X55.880 Y48.895
G1 Z-2
G4 P0.1
G0 Z2
G0 X58.420 Y48.895
G1 Z-2
G4 P0.1
G0 Z2
G0 X60.960 Y48.895
G1 Z-2
G4 P0.1
G0 Z2
G0 X63.500 Y48.895
G1 Z-2
G4 P0.1
G0 Z2
G0 X66.040 Y48.895
G1 Z-2
G4 P0.1
G0 Z2
G0 X68.580 Y48.895
G1 Z-2
G4 P0.1
G0 Z2
G0 X71.120 Y48.895
G1 Z-2
G4 P0.1
G0 Z2
G0 X71.120 Y41.275
G1 Z-2
G4 P0.1
G0 Z2
G0 X68.580 Y41.275
G1 Z-2
G4 P0.1
G0 Z2
G0 X66.040 Y41.275
G1 Z-2
G4 P0.1
G0 Z2
G0 X63.500 Y41.275
G1 Z-2
G4 P0.1
G0 Z2
G0 X60.960 Y41.275
G1 Z-2
G4 P0.1
G0 Z2
G0 X58.420 Y41.275
G1 Z-2
G4 P0.1
G0 Z2
G0 X55.880 Y41.275
G1 Z-2
G4 P0.1
G0 Z2
G0 X55.880 Y33.020
G1 Z-2
G4 P0.1
G0 Z2
G0 X58.420 Y33.020
G1 Z-2
G4 P0.1
G0 Z2
G0 X60.960 Y33.020
G1 Z-2
G4 P0.1
G0 Z2
G0 X63.500 Y33.020
G1 Z-2
G4 P0.1
G0 Z2
G0 X66.040 Y33.020
G1 Z-2
G4 P0.1
G0 Z2
G0 X68.580 Y33.020
G1 Z-2
G4 P0.1
G0 Z2
G0 X71.120 Y33.020
G1 Z-2
G4 P0.1
G0 Z2
G0 X71.120 Y25.400
G1 Z-2
G4 P0.1
G0 Z2
G0 X68.580 Y25.400
G1 Z-2
G4 P0.1
G0 Z2
G0 X66.040 Y25.400
G1 Z-2
G4 P0.1
G0 Z2
G0 X63.500 Y25.400
G1 Z-2
G4 P0.1
G0 Z2
G0 X60.960 Y25.400
G1 Z-2
G4 P0.1
G0 Z2
G0 X58.420 Y25.400
G1 Z-2
G4 P0.1
G0 Z2
G0 X55.880 Y25.400
G1 Z-2
G4 P0.1
G0 Z2
G0 X55.880 Y18.415
G1 Z-2
G4 P0.1
G0 Z2
G0 X58.420 Y18.415
G1 Z-2
G4 P0.1
G0 Z2
G0 X60.960 Y18.415
G1 Z-2
G4 P0.1
G0 Z2
G0 X63.500 Y18.415
G1 Z-2
G4 P0.1
G0 Z2
G0 X66.040 Y18.415
G1 Z-2
G4 P0.1
G0 Z2
G0 X68.580 Y18.415
G1 Z-2
G4 P0.1
G0 Z2
G0 X71.120 Y18.415
G1 Z-2
G4 P0.1
G0 Z2
G0 X71.120 Y10.795
G1 Z-2
G4 P0.1
G0 Z2
G0 X68.580 Y10.795
G1 Z-2
G4 P0.1
G0 Z2
G0 X66.040 Y10.795
G1 Z-2
G4 P0.1
G0 Z2
G0 X63.500 Y10.795
G1 Z-2
G4 P0.1
G0 Z2
G0 X60.960 Y10.795
G1 Z-2
G4 P0.1
G0 Z2
G0 X58.420 Y10.795
G1 Z-2
G4 P0.1
G0 Z2
G0 X55.880 Y10.795
G1 Z-2
G4 P0.1
G0 Z2
G4 P0.1
G0 Z2
M30
