(Project counter_test )
(generated by iStivi python script drill+mill_genarator.py)
G71 G90
F500
G0 Z5
( T01 : 0.6000 )
( T02 : 0.8000 )
G0 Z25
T01 M6 (T01 0.6000)
M3
G90 G81 G99 X26.162 Y16.510 Z-3 R3
G90 G81 G99 X29.718 Y16.510 Z-3 R3
G0 Z25
T02 M6 (T02 0.8000)
M3
G90 G81 G99 X4.445 Y17.780 Z-3 R3
G90 G81 G99 X6.985 Y17.780 Z-3 R3
G90 G81 G99 X6.985 Y20.320 Z-3 R3
G90 G81 G99 X4.445 Y20.320 Z-3 R3
G90 G81 G99 X5.715 Y27.305 Z-3 R3
G90 G81 G99 X4.445 Y35.560 Z-3 R3
G90 G81 G99 X6.985 Y35.560 Z-3 R3
G90 G81 G99 X6.985 Y38.100 Z-3 R3
G90 G81 G99 X4.445 Y38.100 Z-3 R3
G90 G81 G99 X4.445 Y40.640 Z-3 R3
G90 G81 G99 X6.985 Y40.640 Z-3 R3
G90 G81 G99 X6.985 Y43.180 Z-3 R3
G90 G81 G99 X4.445 Y43.180 Z-3 R3
G90 G81 G99 X5.715 Y48.895 Z-3 R3
G90 G81 G99 X5.715 Y51.435 Z-3 R3
G90 G81 G99 X19.939 Y58.801 Z-3 R3
G90 G81 G99 X30.861 Y63.119 Z-3 R3
G90 G81 G99 X35.687 Y40.386 Z-3 R3
G90 G81 G99 X48.387 Y34.417 Z-3 R3
G90 G81 G99 X53.213 Y30.226 Z-3 R3
G90 G81 G99 X46.355 Y23.495 Z-3 R3
G90 G81 G99 X33.020 Y13.843 Z-3 R3
G90 G81 G99 X36.195 Y5.715 Z-3 R3
G90 G81 G99 X28.575 Y5.715 Z-3 R3
G90 G81 G99 X26.035 Y5.715 Z-3 R3
G90 G81 G99 X12.192 Y36.703 Z-3 R3
G90 G81 G99 X70.993 Y38.481 Z-3 R3
G90 G81 G99 X73.025 Y42.545 Z-3 R3
G90 G81 G99 X73.025 Y45.720 Z-3 R3
G90 G81 G99 X84.455 Y45.720 Z-3 R3
G90 G81 G99 X84.455 Y43.180 Z-3 R3
G90 G81 G99 X84.455 Y40.640 Z-3 R3
G90 G81 G99 X84.455 Y38.100 Z-3 R3
G90 G81 G99 X84.455 Y32.385 Z-3 R3
G90 G81 G99 X84.455 Y29.845 Z-3 R3
G90 G81 G99 X84.455 Y24.130 Z-3 R3
G90 G81 G99 X84.455 Y21.590 Z-3 R3
G90 G81 G99 X84.455 Y19.050 Z-3 R3
G90 G81 G99 X84.455 Y13.970 Z-3 R3
G90 G81 G99 X84.455 Y11.430 Z-3 R3
G90 G81 G99 X84.455 Y8.890 Z-3 R3
G90 G81 G99 X84.455 Y6.350 Z-3 R3
G90 G81 G99 X72.263 Y8.636 Z-3 R3
G90 G81 G99 X72.390 Y12.065 Z-3 R3
G90 G81 G99 X72.390 Y15.240 Z-3 R3
G90 G81 G99 X71.501 Y33.909 Z-3 R3
G90 G81 G99 X84.455 Y50.800 Z-3 R3
G90 G81 G99 X84.455 Y53.340 Z-3 R3
G90 G81 G99 X84.455 Y55.880 Z-3 R3
G90 G81 G99 X67.945 Y56.515 Z-3 R3
G90 G81 G99 X65.405 Y56.515 Z-3 R3
G90 G81 G99 X62.865 Y56.515 Z-3 R3
G90 G81 G99 X60.325 Y56.515 Z-3 R3
G90 G81 G99 X57.785 Y56.515 Z-3 R3
G90 G81 G99 X55.245 Y56.515 Z-3 R3
G90 G81 G99 X52.705 Y56.515 Z-3 R3
G90 G81 G99 X52.705 Y48.895 Z-3 R3
G90 G81 G99 X55.245 Y48.895 Z-3 R3
G90 G81 G99 X57.785 Y48.895 Z-3 R3
G90 G81 G99 X60.325 Y48.895 Z-3 R3
G90 G81 G99 X62.865 Y48.895 Z-3 R3
G90 G81 G99 X65.405 Y48.895 Z-3 R3
G90 G81 G99 X67.945 Y48.895 Z-3 R3
G90 G81 G99 X67.310 Y42.545 Z-3 R3
G90 G81 G99 X64.770 Y42.545 Z-3 R3
G90 G81 G99 X62.230 Y42.545 Z-3 R3
G90 G81 G99 X59.690 Y42.545 Z-3 R3
G90 G81 G99 X57.150 Y42.545 Z-3 R3
G90 G81 G99 X54.610 Y42.545 Z-3 R3
G90 G81 G99 X52.070 Y42.545 Z-3 R3
G90 G81 G99 X52.070 Y34.925 Z-3 R3
G90 G81 G99 X54.610 Y34.925 Z-3 R3
G90 G81 G99 X57.150 Y34.925 Z-3 R3
G90 G81 G99 X59.690 Y34.925 Z-3 R3
G90 G81 G99 X62.230 Y34.925 Z-3 R3
G90 G81 G99 X64.770 Y34.925 Z-3 R3
G90 G81 G99 X67.310 Y34.925 Z-3 R3
G90 G81 G99 X67.310 Y26.670 Z-3 R3
G90 G81 G99 X64.770 Y26.670 Z-3 R3
G90 G81 G99 X62.230 Y26.670 Z-3 R3
G90 G81 G99 X59.690 Y26.670 Z-3 R3
G90 G81 G99 X57.150 Y26.670 Z-3 R3
G90 G81 G99 X54.610 Y26.670 Z-3 R3
G90 G81 G99 X52.070 Y26.670 Z-3 R3
G90 G81 G99 X52.070 Y19.050 Z-3 R3
G90 G81 G99 X54.610 Y19.050 Z-3 R3
G90 G81 G99 X57.150 Y19.050 Z-3 R3
G90 G81 G99 X59.690 Y19.050 Z-3 R3
G90 G81 G99 X62.230 Y19.050 Z-3 R3
G90 G81 G99 X64.770 Y19.050 Z-3 R3
G90 G81 G99 X67.310 Y19.050 Z-3 R3
G90 G81 G99 X67.310 Y12.065 Z-3 R3
G90 G81 G99 X64.770 Y12.065 Z-3 R3
G90 G81 G99 X62.230 Y12.065 Z-3 R3
G90 G81 G99 X59.690 Y12.065 Z-3 R3
G90 G81 G99 X57.150 Y12.065 Z-3 R3
G90 G81 G99 X54.610 Y12.065 Z-3 R3
G90 G81 G99 X52.070 Y12.065 Z-3 R3
G90 G81 G99 X52.070 Y4.445 Z-3 R3
G90 G81 G99 X54.610 Y4.445 Z-3 R3
G90 G81 G99 X57.150 Y4.445 Z-3 R3
G90 G81 G99 X59.690 Y4.445 Z-3 R3
G90 G81 G99 X62.230 Y4.445 Z-3 R3
G90 G81 G99 X64.770 Y4.445 Z-3 R3
G90 G81 G99 X67.310 Y4.445 Z-3 R3
G90 G81 G99 X38.735 Y28.575 Z-3 R3
G90 G81 G99 X36.195 Y28.575 Z-3 R3
G90 G81 G99 X33.655 Y28.575 Z-3 R3
G90 G81 G99 X31.115 Y28.575 Z-3 R3
G90 G81 G99 X28.575 Y28.575 Z-3 R3
G90 G81 G99 X26.035 Y28.575 Z-3 R3
G90 G81 G99 X23.495 Y28.575 Z-3 R3
G90 G81 G99 X23.495 Y36.195 Z-3 R3
G90 G81 G99 X26.035 Y36.195 Z-3 R3
G90 G81 G99 X28.575 Y36.195 Z-3 R3
G90 G81 G99 X31.115 Y36.195 Z-3 R3
G90 G81 G99 X33.655 Y36.195 Z-3 R3
G90 G81 G99 X36.195 Y36.195 Z-3 R3
G90 G81 G99 X38.735 Y36.195 Z-3 R3
G90 G81 G99 X38.735 Y47.625 Z-3 R3
G90 G81 G99 X36.195 Y47.625 Z-3 R3
G90 G81 G99 X33.655 Y47.625 Z-3 R3
G90 G81 G99 X31.115 Y47.625 Z-3 R3
G90 G81 G99 X28.575 Y47.625 Z-3 R3
G90 G81 G99 X26.035 Y47.625 Z-3 R3
G90 G81 G99 X23.495 Y47.625 Z-3 R3
G90 G81 G99 X23.495 Y55.245 Z-3 R3
G90 G81 G99 X26.035 Y55.245 Z-3 R3
G90 G81 G99 X28.575 Y55.245 Z-3 R3
G90 G81 G99 X31.115 Y55.245 Z-3 R3
G90 G81 G99 X33.655 Y55.245 Z-3 R3
G90 G81 G99 X36.195 Y55.245 Z-3 R3
G90 G81 G99 X38.735 Y55.245 Z-3 R3
M30
