(Project distribution_board )
(generated by iStivi python script drill+mill_genarator.py)
G71 G90
F500
G0 Z5
( T01 : 0.6000 )
( T02 : 0.8000 )
( T03 : 1.0000 )
( T04 : 1.1000 )
( T05 : 1.2000 )
( T06 : 3.0000 )
G0 Z20
T01 M6 (T01 0.6000)
G4 P0.1
G0 Z2
G0 X21.590 Y15.240
G1 Z-2
G4 P0.1
G0 Z2
G0 X21.590 Y17.780
G1 Z-2
G4 P0.1
G0 Z2
G0 X26.670 Y17.780
G1 Z-2
G4 P0.1
G0 Z2
G0 X26.670 Y15.240
G1 Z-2
G4 P0.1
G0 Z2
G0 X41.910 Y15.240
G1 Z-2
G4 P0.1
G0 Z2
G0 X41.910 Y17.780
G1 Z-2
G4 P0.1
G0 Z2
G0 X46.990 Y17.780
G1 Z-2
G4 P0.1
G0 Z2
G0 X46.990 Y15.240
G1 Z-2
G4 P0.1
G0 Z2
G0 X62.230 Y15.240
G1 Z-2
G4 P0.1
G0 Z2
G0 X62.230 Y17.780
G1 Z-2
G4 P0.1
G0 Z2
G0 X67.310 Y17.780
G1 Z-2
G4 P0.1
G0 Z2
G0 X67.310 Y15.240
G1 Z-2
G4 P0.1
G0 Z2
G0 X82.550 Y15.240
G1 Z-2
G4 P0.1
G0 Z2
G0 X82.550 Y17.780
G1 Z-2
G4 P0.1
G0 Z2
G0 X87.630 Y17.780
G1 Z-2
G4 P0.1
G0 Z2
G0 X87.630 Y15.240
G1 Z-2
G4 P0.1
G0 Z2
G0 X102.870 Y15.240
G1 Z-2
G4 P0.1
G0 Z2
G0 X102.870 Y17.780
G1 Z-2
G4 P0.1
G0 Z2
G0 X107.950 Y17.780
G1 Z-2
G4 P0.1
G0 Z2
G0 X107.950 Y15.240
G1 Z-2
G4 P0.1
G0 Z2
G0 X123.190 Y15.240
G1 Z-2
G4 P0.1
G0 Z2
G0 X123.190 Y17.780
G1 Z-2
G4 P0.1
G0 Z2
G0 X128.270 Y17.780
G1 Z-2
G4 P0.1
G0 Z2
G0 X128.270 Y15.240
G1 Z-2
G4 P0.1
G0 Z2
G0 Z20
T02 M6 (T02 0.8000)
G4 P0.1
G0 Z2
G0 X133.350 Y17.780
G1 Z-2
G4 P0.1
G0 Z2
G0 X135.890 Y17.780
G1 Z-2
G4 P0.1
G0 Z2
G0 X115.570 Y17.780
G1 Z-2
G4 P0.1
G0 Z2
G0 X113.030 Y17.780
G1 Z-2
G4 P0.1
G0 Z2
G0 X95.250 Y17.780
G1 Z-2
G4 P0.1
G0 Z2
G0 X92.710 Y17.780
G1 Z-2
G4 P0.1
G0 Z2
G0 X74.930 Y17.780
G1 Z-2
G4 P0.1
G0 Z2
G0 X72.390 Y17.780
G1 Z-2
G4 P0.1
G0 Z2
G0 X54.610 Y17.780
G1 Z-2
G4 P0.1
G0 Z2
G0 X52.070 Y17.780
G1 Z-2
G4 P0.1
G0 Z2
G0 X34.290 Y17.780
G1 Z-2
G4 P0.1
G0 Z2
G0 X31.750 Y17.780
G1 Z-2
G4 P0.1
G0 Z2
G0 X36.830 Y44.450
G1 Z-2
G4 P0.1
G0 Z2
G0 X36.830 Y46.990
G1 Z-2
G4 P0.1
G0 Z2
G0 X32.385 Y60.325
G1 Z-2
G4 P0.1
G0 Z2
G0 X29.845 Y60.325
G1 Z-2
G4 P0.1
G0 Z2
G0 X53.340 Y79.375
G1 Z-2
G4 P0.1
G0 Z2
G0 X55.880 Y79.375
G1 Z-2
G4 P0.1
G0 Z2
G0 X60.960 Y79.375
G1 Z-2
G4 P0.1
G0 Z2
G0 X63.500 Y79.375
G1 Z-2
G4 P0.1
G0 Z2
G0 X35.560 Y82.550
G1 Z-2
G4 P0.1
G0 Z2
G0 X33.020 Y82.550
G1 Z-2
G4 P0.1
G0 Z2
G0 X20.320 Y82.550
G1 Z-2
G4 P0.1
G0 Z2
G0 X17.780 Y82.550
G1 Z-2
G4 P0.1
G0 Z2
G0 X61.595 Y61.595
G1 Z-2
G4 P0.1
G0 Z2
G0 X64.135 Y61.595
G1 Z-2
G4 P0.1
G0 Z2
G0 X104.140 Y80.010
G1 Z-2
G4 P0.1
G0 Z2
G0 X106.680 Y80.010
G1 Z-2
G4 P0.1
G0 Z2
G0 X116.840 Y80.010
G1 Z-2
G4 P0.1
G0 Z2
G0 X119.380 Y80.010
G1 Z-2
G4 P0.1
G0 Z2
G0 X129.540 Y80.010
G1 Z-2
G4 P0.1
G0 Z2
G0 X132.080 Y80.010
G1 Z-2
G4 P0.1
G0 Z2
G0 X142.240 Y80.010
G1 Z-2
G4 P0.1
G0 Z2
G0 X144.780 Y80.010
G1 Z-2
G4 P0.1
G0 Z2
G0 X124.460 Y53.340
G1 Z-2
G4 P0.1
G0 Z2
G0 X124.460 Y50.800
G1 Z-2
G4 P0.1
G0 Z2
G0 X132.080 Y45.720
G1 Z-2
G4 P0.1
G0 Z2
G0 X132.080 Y43.180
G1 Z-2
G4 P0.1
G0 Z2
G0 Z20
T03 M6 (T03 1.0000)
G4 P0.1
G0 Z2
G0 X131.445 Y26.670
G1 Z-2
G4 P0.1
G0 Z2
G0 X128.905 Y26.670
G1 Z-2
G4 P0.1
G0 Z2
G0 X126.365 Y26.670
G1 Z-2
G4 P0.1
G0 Z2
G0 X111.125 Y26.670
G1 Z-2
G4 P0.1
G0 Z2
G0 X108.585 Y26.670
G1 Z-2
G4 P0.1
G0 Z2
G0 X106.045 Y26.670
G1 Z-2
G4 P0.1
G0 Z2
G0 X90.805 Y26.670
G1 Z-2
G4 P0.1
G0 Z2
G0 X88.265 Y26.670
G1 Z-2
G4 P0.1
G0 Z2
G0 X85.725 Y26.670
G1 Z-2
G4 P0.1
G0 Z2
G0 X70.485 Y26.670
G1 Z-2
G4 P0.1
G0 Z2
G0 X67.945 Y26.670
G1 Z-2
G4 P0.1
G0 Z2
G0 X65.405 Y26.670
G1 Z-2
G4 P0.1
G0 Z2
G0 X50.165 Y26.670
G1 Z-2
G4 P0.1
G0 Z2
G0 X47.625 Y26.670
G1 Z-2
G4 P0.1
G0 Z2
G0 X45.085 Y26.670
G1 Z-2
G4 P0.1
G0 Z2
G0 X29.845 Y26.670
G1 Z-2
G4 P0.1
G0 Z2
G0 X27.305 Y26.670
G1 Z-2
G4 P0.1
G0 Z2
G0 X24.765 Y26.670
G1 Z-2
G4 P0.1
G0 Z2
G0 X17.780 Y68.580
G1 Z-2
G4 P0.1
G0 Z2
G0 X17.780 Y71.120
G1 Z-2
G4 P0.1
G0 Z2
G0 X17.780 Y73.660
G1 Z-2
G4 P0.1
G0 Z2
G0 X36.830 Y73.660
G1 Z-2
G4 P0.1
G0 Z2
G0 X36.830 Y71.120
G1 Z-2
G4 P0.1
G0 Z2
G0 X36.830 Y68.580
G1 Z-2
G4 P0.1
G0 Z2
G0 Z20
T04 M6 (T04 1.1000)
G4 P0.1
G0 Z2
G0 X26.670 Y55.245
G1 Z-2
G4 P0.1
G0 Z2
G0 X17.780 Y55.245
G1 Z-2
G4 P0.1
G0 Z2
G0 X24.130 Y45.085
G1 Z-2
G4 P0.1
G0 Z2
G0 X24.130 Y38.735
G1 Z-2
G4 P0.1
G0 Z2
G0 X71.882 Y64.516
G1 Z-2
G4 P0.1
G0 Z2
G0 X70.104 Y73.660
G1 Z-2
G4 P0.1
G0 Z2
G0 X66.421 Y76.327
G1 Z-2
G4 P0.1
G0 Z2
G0 X96.266 Y63.500
G1 Z-2
G4 P0.1
G0 Z2
G0 X94.615 Y54.610
G1 Z-2
G4 P0.1
G0 Z2
G0 X109.982 Y73.406
G1 Z-2
G4 P0.1
G0 Z2
G0 X100.330 Y78.105
G1 Z-2
G4 P0.1
G0 Z2
G0 X101.092 Y82.804
G1 Z-2
G4 P0.1
G0 Z2
G0 X122.682 Y73.406
G1 Z-2
G4 P0.1
G0 Z2
G0 X135.382 Y73.406
G1 Z-2
G4 P0.1
G0 Z2
G0 Z20
T05 M6 (T05 1.2000)
G4 P0.1
G0 Z2
G0 X154.305 Y55.085
G1 Z-2
G4 P0.1
G0 Z2
G0 X154.305 Y50.085
G1 Z-2
G4 P0.1
G0 Z2
G0 X154.305 Y45.085
G1 Z-2
G4 P0.1
G0 Z2
G0 X130.810 Y5.080
G1 Z-2
G4 P0.1
G0 Z2
G0 X127.000 Y5.080
G1 Z-2
G4 P0.1
G0 Z2
G0 X110.490 Y5.080
G1 Z-2
G4 P0.1
G0 Z2
G0 X106.680 Y5.080
G1 Z-2
G4 P0.1
G0 Z2
G0 X90.170 Y5.080
G1 Z-2
G4 P0.1
G0 Z2
G0 X86.360 Y5.080
G1 Z-2
G4 P0.1
G0 Z2
G0 X69.850 Y5.080
G1 Z-2
G4 P0.1
G0 Z2
G0 X66.040 Y5.080
G1 Z-2
G4 P0.1
G0 Z2
G0 X49.530 Y5.080
G1 Z-2
G4 P0.1
G0 Z2
G0 X45.720 Y5.080
G1 Z-2
G4 P0.1
G0 Z2
G0 X29.210 Y5.080
G1 Z-2
G4 P0.1
G0 Z2
G0 X25.400 Y5.080
G1 Z-2
G4 P0.1
G0 Z2
G0 X5.715 Y45.245
G1 Z-2
G4 P0.1
G0 Z2
G0 X5.715 Y50.245
G1 Z-2
G4 P0.1
G0 Z2
G0 X5.715 Y55.245
G1 Z-2
G4 P0.1
G0 Z2
G0 X16.510 Y95.250
G1 Z-2
G4 P0.1
G0 Z2
G0 X20.320 Y95.250
G1 Z-2
G4 P0.1
G0 Z2
G0 X31.750 Y95.250
G1 Z-2
G4 P0.1
G0 Z2
G0 X35.560 Y95.250
G1 Z-2
G4 P0.1
G0 Z2
G0 X50.800 Y95.250
G1 Z-2
G4 P0.1
G0 Z2
G0 X54.610 Y95.250
G1 Z-2
G4 P0.1
G0 Z2
G0 X58.420 Y95.250
G1 Z-2
G4 P0.1
G0 Z2
G0 X62.230 Y95.250
G1 Z-2
G4 P0.1
G0 Z2
G0 X73.660 Y95.250
G1 Z-2
G4 P0.1
G0 Z2
G0 X77.470 Y95.250
G1 Z-2
G4 P0.1
G0 Z2
G0 X81.280 Y95.250
G1 Z-2
G4 P0.1
G0 Z2
G0 X85.090 Y95.250
G1 Z-2
G4 P0.1
G0 Z2
G0 X88.900 Y95.250
G1 Z-2
G4 P0.1
G0 Z2
G0 X92.710 Y95.250
G1 Z-2
G4 P0.1
G0 Z2
G0 X104.140 Y95.250
G1 Z-2
G4 P0.1
G0 Z2
G0 X107.950 Y95.250
G1 Z-2
G4 P0.1
G0 Z2
G0 X111.760 Y95.250
G1 Z-2
G4 P0.1
G0 Z2
G0 X115.570 Y95.250
G1 Z-2
G4 P0.1
G0 Z2
G0 X119.380 Y95.250
G1 Z-2
G4 P0.1
G0 Z2
G0 X123.190 Y95.250
G1 Z-2
G4 P0.1
G0 Z2
G0 X127.000 Y95.250
G1 Z-2
G4 P0.1
G0 Z2
G0 X130.810 Y95.250
G1 Z-2
G4 P0.1
G0 Z2
G0 Z20
T06 M6 (T06 3.0000)
G4 P0.1
G0 Z2
G0 X5.000 Y5.000
G1 Z-2
G4 P0.1
G0 Z2
G0 X5.000 Y95.000
G1 Z-2
G4 P0.1
G0 Z2
G0 X155.000 Y95.000
G1 Z-2
G4 P0.1
G0 Z2
G0 X155.000 Y5.000
G1 Z-2
G4 P0.1
G0 Z2
G4 P0.1
G0 Z2
M30
