(Project switch-fuses )
(generated by iStivi python script drill+mill_genarator.py)
G71 G90
F500
G0 Z5
( T01 : 0.8000 )
( T02 : 0.9000 )
( T03 : 2.5000 )
( T04 : 3.0000 )
G0 Z20
T01 M6 (T01 0.8000)
G4 P0.1
G0 Z2
G0 X35.560 Y6.350
G1 Z-2
G4 P0.1
G0 Z2
G0 X40.640 Y6.350
G1 Z-2
G4 P0.1
G0 Z2
G0 X43.180 Y6.350
G1 Z-2
G4 P0.1
G0 Z2
G0 X45.720 Y10.160
G1 Z-2
G4 P0.1
G0 Z2
G0 X45.720 Y39.370
G1 Z-2
G4 P0.1
G0 Z2
G0 X43.180 Y44.450
G1 Z-2
G4 P0.1
G0 Z2
G0 X40.640 Y44.450
G1 Z-2
G4 P0.1
G0 Z2
G0 X35.560 Y43.180
G1 Z-2
G4 P0.1
G0 Z2
G0 Z20
T02 M6 (T02 0.9000)
G4 P0.1
G0 Z2
G0 X30.480 Y43.180
G1 Z-2
G4 P0.1
G0 Z2
G0 X30.480 Y36.830
G1 Z-2
G4 P0.1
G0 Z2
G0 X15.240 Y43.180
G1 Z-2
G4 P0.1
G0 Z2
G0 X45.720 Y36.830
G1 Z-2
G4 P0.1
G0 Z2
G0 X45.720 Y12.700
G1 Z-2
G4 P0.1
G0 Z2
G0 X30.480 Y12.700
G1 Z-2
G4 P0.1
G0 Z2
G0 X30.480 Y6.350
G1 Z-2
G4 P0.1
G0 Z2
G0 X15.240 Y6.350
G1 Z-2
G4 P0.1
G0 Z2
G0 Z20
T03 M6 (T03 2.5000)
G4 P0.1
G0 Z2
G0 X15.240 Y19.050
G1 Z-2
G4 P0.1
G0 Z2
G0 X21.590 Y19.050
G1 Z-2
G4 P0.1
G0 Z2
G0 X30.480 Y19.050
G1 Z-2
G4 P0.1
G0 Z2
G0 X36.830 Y19.050
G1 Z-2
G4 P0.1
G0 Z2
G0 X36.830 Y29.210
G1 Z-2
G4 P0.1
G0 Z2
G0 X30.480 Y29.210
G1 Z-2
G4 P0.1
G0 Z2
G0 X21.590 Y29.210
G1 Z-2
G4 P0.1
G0 Z2
G0 X15.240 Y29.210
G1 Z-2
G4 P0.1
G0 Z2
G0 X53.340 Y29.210
G1 Z-2
G4 P0.1
G0 Z2
G0 X53.340 Y35.560
G1 Z-2
G4 P0.1
G0 Z2
G0 X53.340 Y19.050
G1 Z-2
G4 P0.1
G0 Z2
G0 X53.340 Y12.700
G1 Z-2
G4 P0.1
G0 Z2
G0 Z20
T04 M6 (T04 3.0000)
G4 P0.1
G0 Z2
G0 X5.000 Y5.000
G1 Z-2
G4 P0.1
G0 Z2
G0 X5.000 Y45.000
G1 Z-2
G4 P0.1
G0 Z2
G0 X60.000 Y45.000
G1 Z-2
G4 P0.1
G0 Z2
G0 X60.000 Y5.000
G1 Z-2
G4 P0.1
G0 Z2
G4 P0.1
G0 Z2
M30
