(Project tube-tester )
(generated by iStivi python script drill+mill_genarator.py)
G71 G90
( T01 : 0.6000 )
( T02 : 0.8000 )
( T03 : 1.0000 )
( T04 : 3.0000 )
( T05 : 3.3020 )
F500
G0 Z5
G0 Z20
T01 M6 (0.6000)
G0 X22.860 Y26.670
G1 Z-2
G4 P0.1
G0 Z2
G0 X22.860 Y31.750
G1 Z-2
G4 P0.1
G0 Z2
G0 X25.400 Y55.880
G1 Z-2
G4 P0.1
G0 Z2
G0 X25.400 Y58.420
G1 Z-2
G4 P0.1
G0 Z2
G0 X25.400 Y60.960
G1 Z-2
G4 P0.1
G0 Z2
G0 X46.990 Y60.960
G1 Z-2
G4 P0.1
G0 Z2
G0 X46.990 Y64.770
G1 Z-2
G4 P0.1
G0 Z2
G0 X50.800 Y64.770
G1 Z-2
G4 P0.1
G0 Z2
G0 X50.800 Y74.930
G1 Z-2
G4 P0.1
G0 Z2
G0 X46.990 Y74.930
G1 Z-2
G4 P0.1
G0 Z2
G0 X50.800 Y88.392
G1 Z-2
G4 P0.1
G0 Z2
G0 X50.800 Y91.948
G1 Z-2
G4 P0.1
G0 Z2
G0 X42.545 Y92.075
G1 Z-2
G4 P0.1
G0 Z2
G0 X32.385 Y92.075
G1 Z-2
G4 P0.1
G0 Z2
G0 X64.260 Y81.790
G1 Z-2
G4 P0.1
G0 Z2
G0 X66.070 Y85.236
G1 Z-2
G4 P0.1
G0 Z2
G0 X69.850 Y86.110
G1 Z-2
G4 P0.1
G0 Z2
G0 X73.630 Y85.236
G1 Z-2
G4 P0.1
G0 Z2
G0 X75.440 Y81.790
G1 Z-2
G4 P0.1
G0 Z2
G0 X75.440 Y77.470
G1 Z-2
G4 P0.1
G0 Z2
G0 X75.440 Y73.150
G1 Z-2
G4 P0.1
G0 Z2
G0 X73.630 Y69.704
G1 Z-2
G4 P0.1
G0 Z2
G0 X69.850 Y68.830
G1 Z-2
G4 P0.1
G0 Z2
G0 X66.070 Y69.704
G1 Z-2
G4 P0.1
G0 Z2
G0 X64.260 Y73.150
G1 Z-2
G4 P0.1
G0 Z2
G0 X64.260 Y77.470
G1 Z-2
G4 P0.1
G0 Z2
G0 X87.630 Y80.010
G1 Z-2
G4 P0.1
G0 Z2
G0 X91.440 Y80.010
G1 Z-2
G4 P0.1
G0 Z2
G0 X91.440 Y69.850
G1 Z-2
G4 P0.1
G0 Z2
G0 X87.630 Y69.850
G1 Z-2
G4 P0.1
G0 Z2
G0 X49.911 Y30.480
G1 Z-2
G4 P0.1
G0 Z2
G0 X47.879 Y30.480
G1 Z-2
G4 P0.1
G0 Z2
G0 X46.990 Y50.800
G1 Z-2
G4 P0.1
G0 Z2
G0 Z20
T02 M6 (0.8000)
G0 X42.545 Y46.863
G1 Z-2
G4 P0.1
G0 Z2
G0 X41.529 Y49.657
G1 Z-2
G4 P0.1
G0 Z2
G0 X38.735 Y46.863
G1 Z-2
G4 P0.1
G0 Z2
G0 X33.655 Y50.292
G1 Z-2
G4 P0.1
G0 Z2
G0 X31.623 Y55.753
G1 Z-2
G4 P0.1
G0 Z2
G0 X29.210 Y56.896
G1 Z-2
G4 P0.1
G0 Z2
G0 X30.226 Y59.436
G1 Z-2
G4 P0.1
G0 Z2
G0 X28.067 Y61.087
G1 Z-2
G4 P0.1
G0 Z2
G0 X30.226 Y64.643
G1 Z-2
G4 P0.1
G0 Z2
G0 X36.830 Y71.120
G1 Z-2
G4 P0.1
G0 Z2
G0 X31.750 Y73.660
G1 Z-2
G4 P0.1
G0 Z2
G0 X36.830 Y76.200
G1 Z-2
G4 P0.1
G0 Z2
G0 X25.400 Y74.549
G1 Z-2
G4 P0.1
G0 Z2
G0 X6.350 Y45.466
G1 Z-2
G4 P0.1
G0 Z2
G0 X25.400 Y16.713
G1 Z-2
G4 P0.1
G0 Z2
G0 X25.400 Y12.700
G1 Z-2
G4 P0.1
G0 Z2
G0 X25.400 Y8.687
G1 Z-2
G4 P0.1
G0 Z2
G0 X29.972 Y14.859
G1 Z-2
G4 P0.1
G0 Z2
G0 X35.560 Y16.713
G1 Z-2
G4 P0.1
G0 Z2
G0 X35.560 Y12.700
G1 Z-2
G4 P0.1
G0 Z2
G0 X35.560 Y8.687
G1 Z-2
G4 P0.1
G0 Z2
G0 X41.148 Y10.668
G1 Z-2
G4 P0.1
G0 Z2
G0 X41.148 Y6.223
G1 Z-2
G4 P0.1
G0 Z2
G0 X45.720 Y8.687
G1 Z-2
G4 P0.1
G0 Z2
G0 X45.720 Y12.700
G1 Z-2
G4 P0.1
G0 Z2
G0 X45.720 Y16.713
G1 Z-2
G4 P0.1
G0 Z2
G0 X50.292 Y14.859
G1 Z-2
G4 P0.1
G0 Z2
G0 X55.880 Y16.713
G1 Z-2
G4 P0.1
G0 Z2
G0 X55.880 Y12.700
G1 Z-2
G4 P0.1
G0 Z2
G0 X55.880 Y8.687
G1 Z-2
G4 P0.1
G0 Z2
G0 X66.040 Y8.687
G1 Z-2
G4 P0.1
G0 Z2
G0 X66.040 Y12.700
G1 Z-2
G4 P0.1
G0 Z2
G0 X66.040 Y16.713
G1 Z-2
G4 P0.1
G0 Z2
G0 X70.612 Y14.859
G1 Z-2
G4 P0.1
G0 Z2
G0 X80.010 Y16.713
G1 Z-2
G4 P0.1
G0 Z2
G0 X80.010 Y12.700
G1 Z-2
G4 P0.1
G0 Z2
G0 X80.010 Y8.687
G1 Z-2
G4 P0.1
G0 Z2
G0 X71.247 Y29.718
G1 Z-2
G4 P0.1
G0 Z2
G0 X72.517 Y33.909
G1 Z-2
G4 P0.1
G0 Z2
G0 X76.327 Y32.766
G1 Z-2
G4 P0.1
G0 Z2
G0 X78.740 Y31.623
G1 Z-2
G4 P0.1
G0 Z2
G0 X78.740 Y38.100
G1 Z-2
G4 P0.1
G0 Z2
G0 X76.200 Y38.100
G1 Z-2
G4 P0.1
G0 Z2
G0 X73.660 Y38.100
G1 Z-2
G4 P0.1
G0 Z2
G0 X71.120 Y38.100
G1 Z-2
G4 P0.1
G0 Z2
G0 X68.580 Y38.100
G1 Z-2
G4 P0.1
G0 Z2
G0 X66.040 Y38.100
G1 Z-2
G4 P0.1
G0 Z2
G0 X63.500 Y38.100
G1 Z-2
G4 P0.1
G0 Z2
G0 X60.960 Y38.100
G1 Z-2
G4 P0.1
G0 Z2
G0 X56.388 Y42.291
G1 Z-2
G4 P0.1
G0 Z2
G0 X55.245 Y38.481
G1 Z-2
G4 P0.1
G0 Z2
G0 X51.689 Y34.925
G1 Z-2
G4 P0.1
G0 Z2
G0 X47.879 Y35.560
G1 Z-2
G4 P0.1
G0 Z2
G0 X46.736 Y39.370
G1 Z-2
G4 P0.1
G0 Z2
G0 X41.021 Y37.465
G1 Z-2
G4 P0.1
G0 Z2
G0 X55.245 Y22.352
G1 Z-2
G4 P0.1
G0 Z2
G0 X60.960 Y45.720
G1 Z-2
G4 P0.1
G0 Z2
G0 X63.500 Y45.720
G1 Z-2
G4 P0.1
G0 Z2
G0 X66.040 Y45.720
G1 Z-2
G4 P0.1
G0 Z2
G0 X68.580 Y45.720
G1 Z-2
G4 P0.1
G0 Z2
G0 X71.120 Y45.720
G1 Z-2
G4 P0.1
G0 Z2
G0 X73.660 Y45.720
G1 Z-2
G4 P0.1
G0 Z2
G0 X76.200 Y45.720
G1 Z-2
G4 P0.1
G0 Z2
G0 X78.740 Y45.720
G1 Z-2
G4 P0.1
G0 Z2
G0 X82.550 Y45.847
G1 Z-2
G4 P0.1
G0 Z2
G0 X83.439 Y42.799
G1 Z-2
G4 P0.1
G0 Z2
G0 X85.344 Y48.641
G1 Z-2
G4 P0.1
G0 Z2
G0 X87.249 Y50.546
G1 Z-2
G4 P0.1
G0 Z2
G0 X90.170 Y49.530
G1 Z-2
G4 P0.1
G0 Z2
G0 X95.377 Y44.450
G1 Z-2
G4 P0.1
G0 Z2
G0 X90.170 Y56.515
G1 Z-2
G4 P0.1
G0 Z2
G0 X80.264 Y62.738
G1 Z-2
G4 P0.1
G0 Z2
G0 X80.264 Y65.405
G1 Z-2
G4 P0.1
G0 Z2
G0 X86.106 Y78.105
G1 Z-2
G4 P0.1
G0 Z2
G0 X91.567 Y77.470
G1 Z-2
G4 P0.1
G0 Z2
G0 X80.645 Y89.408
G1 Z-2
G4 P0.1
G0 Z2
G0 X64.643 Y89.535
G1 Z-2
G4 P0.1
G0 Z2
G0 X86.995 Y31.242
G1 Z-2
G4 P0.1
G0 Z2
G0 Z20
T03 M6 (1.0000)
G0 X15.240 Y43.180
G1 Z-2
G4 P0.1
G0 Z2
G0 X12.700 Y43.180
G1 Z-2
G4 P0.1
G0 Z2
G0 X10.160 Y43.180
G1 Z-2
G4 P0.1
G0 Z2
G0 X7.620 Y29.210
G1 Z-2
G4 P0.1
G0 Z2
G0 X7.620 Y25.710
G1 Z-2
G4 P0.1
G0 Z2
G0 Z20
T04 M6 (3.0000)
G0 X7.500 Y7.500
G1 Z-2
G4 P0.1
G0 Z2
G0 X7.500 Y92.500
G1 Z-2
G4 P0.1
G0 Z2
G0 X92.500 Y92.500
G1 Z-2
G4 P0.1
G0 Z2
G0 X92.500 Y7.500
G1 Z-2
G4 P0.1
G0 Z2
G0 Z20
T05 M6 (3.3020)
G0 X12.700 Y58.166
G1 Z-2
G4 P0.1
G0 Z2
(start milling routine)
F100
T201 M6 (1mm mill)
G0 Z5 X000.000 Y000.000
G0 Z5 X024.900 Y008.687
G1 Z-0.5
G1 X025.900 Y008.687
G1 Z1
G0 X024.900 Y008.687
G1 Z-1
G1 X025.900 Y008.687
G1 Z1
G0 X024.900 Y008.687
G1 Z-1.5
G1 X025.900 Y008.687
G1 Z1
G0 Z1 X024.900 Y008.687
G1 Z-2
G1 X025.900 Y008.687
G0 Z5
G0 Z5 X025.900 Y012.700
G1 Z-0.5
G1 X024.900 Y012.700
G1 Z1
G0 X025.900 Y012.700
G1 Z-1
G1 X024.900 Y012.700
G1 Z1
G0 X025.900 Y012.700
G1 Z-1.5
G1 X024.900 Y012.700
G1 Z1
G0 Z1 X025.900 Y012.700
G1 Z-2
G1 X024.900 Y012.700
G0 Z5
G0 Z5 X024.900 Y016.713
G1 Z-0.5
G1 X025.900 Y016.713
G1 Z1
G0 X024.900 Y016.713
G1 Z-1
G1 X025.900 Y016.713
G1 Z1
G0 X024.900 Y016.713
G1 Z-1.5
G1 X025.900 Y016.713
G1 Z1
G0 Z1 X024.900 Y016.713
G1 Z-2
G1 X025.900 Y016.713
G0 Z5
G0 Z5 X035.060 Y016.713
G1 Z-0.5
G1 X036.060 Y016.713
G1 Z1
G0 X035.060 Y016.713
G1 Z-1
G1 X036.060 Y016.713
G1 Z1
G0 X035.060 Y016.713
G1 Z-1.5
G1 X036.060 Y016.713
G1 Z1
G0 Z1 X035.060 Y016.713
G1 Z-2
G1 X036.060 Y016.713
G0 Z5
G0 Z5 X036.060 Y012.700
G1 Z-0.5
G1 X035.060 Y012.700
G1 Z1
G0 X036.060 Y012.700
G1 Z-1
G1 X035.060 Y012.700
G1 Z1
G0 X036.060 Y012.700
G1 Z-1.5
G1 X035.060 Y012.700
G1 Z1
G0 Z1 X036.060 Y012.700
G1 Z-2
G1 X035.060 Y012.700
G0 Z5
G0 Z5 X035.060 Y008.687
G1 Z-0.5
G1 X036.060 Y008.687
G1 Z1
G0 X035.060 Y008.687
G1 Z-1
G1 X036.060 Y008.687
G1 Z1
G0 X035.060 Y008.687
G1 Z-1.5
G1 X036.060 Y008.687
G1 Z1
G0 Z1 X035.060 Y008.687
G1 Z-2
G1 X036.060 Y008.687
G0 Z5
G0 Z5 X045.220 Y008.687
G1 Z-0.5
G1 X046.220 Y008.687
G1 Z1
G0 X045.220 Y008.687
G1 Z-1
G1 X046.220 Y008.687
G1 Z1
G0 X045.220 Y008.687
G1 Z-1.5
G1 X046.220 Y008.687
G1 Z1
G0 Z1 X045.220 Y008.687
G1 Z-2
G1 X046.220 Y008.687
G0 Z5
G0 Z5 X046.220 Y012.700
G1 Z-0.5
G1 X045.220 Y012.700
G1 Z1
G0 X046.220 Y012.700
G1 Z-1
G1 X045.220 Y012.700
G1 Z1
G0 X046.220 Y012.700
G1 Z-1.5
G1 X045.220 Y012.700
G1 Z1
G0 Z1 X046.220 Y012.700
G1 Z-2
G1 X045.220 Y012.700
G0 Z5
G0 Z5 X045.220 Y016.713
G1 Z-0.5
G1 X046.220 Y016.713
G1 Z1
G0 X045.220 Y016.713
G1 Z-1
G1 X046.220 Y016.713
G1 Z1
G0 X045.220 Y016.713
G1 Z-1.5
G1 X046.220 Y016.713
G1 Z1
G0 Z1 X045.220 Y016.713
G1 Z-2
G1 X046.220 Y016.713
G0 Z5
G0 Z5 X055.380 Y016.713
G1 Z-0.5
G1 X056.380 Y016.713
G1 Z1
G0 X055.380 Y016.713
G1 Z-1
G1 X056.380 Y016.713
G1 Z1
G0 X055.380 Y016.713
G1 Z-1.5
G1 X056.380 Y016.713
G1 Z1
G0 Z1 X055.380 Y016.713
G1 Z-2
G1 X056.380 Y016.713
G0 Z5
G0 Z5 X056.380 Y012.700
G1 Z-0.5
G1 X055.380 Y012.700
G1 Z1
G0 X056.380 Y012.700
G1 Z-1
G1 X055.380 Y012.700
G1 Z1
G0 X056.380 Y012.700
G1 Z-1.5
G1 X055.380 Y012.700
G1 Z1
G0 Z1 X056.380 Y012.700
G1 Z-2
G1 X055.380 Y012.700
G0 Z5
G0 Z5 X055.380 Y008.687
G1 Z-0.5
G1 X056.380 Y008.687
G1 Z1
G0 X055.380 Y008.687
G1 Z-1
G1 X056.380 Y008.687
G1 Z1
G0 X055.380 Y008.687
G1 Z-1.5
G1 X056.380 Y008.687
G1 Z1
G0 Z1 X055.380 Y008.687
G1 Z-2
G1 X056.380 Y008.687
G0 Z5
G0 Z5 X065.540 Y008.687
G1 Z-0.5
G1 X066.540 Y008.687
G1 Z1
G0 X065.540 Y008.687
G1 Z-1
G1 X066.540 Y008.687
G1 Z1
G0 X065.540 Y008.687
G1 Z-1.5
G1 X066.540 Y008.687
G1 Z1
G0 Z1 X065.540 Y008.687
G1 Z-2
G1 X066.540 Y008.687
G0 Z5
G0 Z5 X066.540 Y012.700
G1 Z-0.5
G1 X065.540 Y012.700
G1 Z1
G0 X066.540 Y012.700
G1 Z-1
G1 X065.540 Y012.700
G1 Z1
G0 X066.540 Y012.700
G1 Z-1.5
G1 X065.540 Y012.700
G1 Z1
G0 Z1 X066.540 Y012.700
G1 Z-2
G1 X065.540 Y012.700
G0 Z5
G0 Z5 X065.540 Y016.713
G1 Z-0.5
G1 X066.540 Y016.713
G1 Z1
G0 X065.540 Y016.713
G1 Z-1
G1 X066.540 Y016.713
G1 Z1
G0 X065.540 Y016.713
G1 Z-1.5
G1 X066.540 Y016.713
G1 Z1
G0 Z1 X065.540 Y016.713
G1 Z-2
G1 X066.540 Y016.713
G0 Z5
G0 Z5 X079.510 Y016.713
G1 Z-0.5
G1 X080.510 Y016.713
G1 Z1
G0 X079.510 Y016.713
G1 Z-1
G1 X080.510 Y016.713
G1 Z1
G0 X079.510 Y016.713
G1 Z-1.5
G1 X080.510 Y016.713
G1 Z1
G0 Z1 X079.510 Y016.713
G1 Z-2
G1 X080.510 Y016.713
G0 Z5
G0 Z5 X080.510 Y012.700
G1 Z-0.5
G1 X079.510 Y012.700
G1 Z1
G0 X080.510 Y012.700
G1 Z-1
G1 X079.510 Y012.700
G1 Z1
G0 X080.510 Y012.700
G1 Z-1.5
G1 X079.510 Y012.700
G1 Z1
G0 Z1 X080.510 Y012.700
G1 Z-2
G1 X079.510 Y012.700
G0 Z5
G0 Z5 X079.510 Y008.687
G1 Z-0.5
G1 X080.510 Y008.687
G1 Z1
G0 X079.510 Y008.687
G1 Z-1
G1 X080.510 Y008.687
G1 Z1
G0 X079.510 Y008.687
G1 Z-1.5
G1 X080.510 Y008.687
G1 Z1
G0 Z1 X079.510 Y008.687
G1 Z-2
G1 X080.510 Y008.687
G0 Z5
G0 Z5 X000.000 Y000.000
M30
