(Project tube-tester )
(generated by iStivi python script drill+mill_genarator.py)
G71 G90
( T01 : 0.6000 )
( T02 : 0.8000 )
( T03 : 1.0000 )
( T04 : 3.0000 )
F500
G0 Z5
G0 Z20
T01 M6 (0.6000)
G0 X14.859 Y10.160
G1 Z-2
G4 P0.1
G0 Z2
G0 X16.891 Y10.160
G1 Z-2
G4 P0.1
G0 Z2
G0 X16.129 Y31.750
G1 Z-2
G4 P0.1
G0 Z2
G0 X18.161 Y31.750
G1 Z-2
G4 P0.1
G0 Z2
G0 X16.510 Y40.005
G1 Z-2
G4 P0.1
G0 Z2
G0 X16.510 Y42.545
G1 Z-2
G4 P0.1
G0 Z2
G0 X16.510 Y45.085
G1 Z-2
G4 P0.1
G0 Z2
G0 X6.985 Y40.005
G1 Z-2
G4 P0.1
G0 Z2
G0 X6.985 Y34.925
G1 Z-2
G4 P0.1
G0 Z2
G0 X41.910 Y43.180
G1 Z-2
G4 P0.1
G0 Z2
G0 X45.720 Y43.180
G1 Z-2
G4 P0.1
G0 Z2
G0 X45.720 Y53.340
G1 Z-2
G4 P0.1
G0 Z2
G0 X41.910 Y53.340
G1 Z-2
G4 P0.1
G0 Z2
G0 X50.165 Y62.992
G1 Z-2
G4 P0.1
G0 Z2
G0 X50.165 Y66.548
G1 Z-2
G4 P0.1
G0 Z2
G0 X36.195 Y67.945
G1 Z-2
G4 P0.1
G0 Z2
G0 X26.035 Y67.945
G1 Z-2
G4 P0.1
G0 Z2
G0 X71.245 Y60.200
G1 Z-2
G4 P0.1
G0 Z2
G0 X73.055 Y63.646
G1 Z-2
G4 P0.1
G0 Z2
G0 X76.835 Y64.520
G1 Z-2
G4 P0.1
G0 Z2
G0 X80.615 Y63.646
G1 Z-2
G4 P0.1
G0 Z2
G0 X82.425 Y60.200
G1 Z-2
G4 P0.1
G0 Z2
G0 X82.425 Y55.880
G1 Z-2
G4 P0.1
G0 Z2
G0 X82.425 Y51.560
G1 Z-2
G4 P0.1
G0 Z2
G0 X80.615 Y48.114
G1 Z-2
G4 P0.1
G0 Z2
G0 X76.835 Y47.240
G1 Z-2
G4 P0.1
G0 Z2
G0 X73.055 Y48.114
G1 Z-2
G4 P0.1
G0 Z2
G0 X71.245 Y51.560
G1 Z-2
G4 P0.1
G0 Z2
G0 X71.245 Y55.880
G1 Z-2
G4 P0.1
G0 Z2
G0 X89.535 Y54.610
G1 Z-2
G4 P0.1
G0 Z2
G0 X92.710 Y54.610
G1 Z-2
G4 P0.1
G0 Z2
G0 X92.710 Y44.450
G1 Z-2
G4 P0.1
G0 Z2
G0 X89.535 Y44.450
G1 Z-2
G4 P0.1
G0 Z2
G0 X69.215 Y26.670
G1 Z-2
G4 P0.1
G0 Z2
G0 X59.055 Y26.670
G1 Z-2
G4 P0.1
G0 Z2
G0 Z20
T02 M6 (0.8000)
G0 X51.435 Y21.590
G1 Z-2
G4 P0.1
G0 Z2
G0 X50.800 Y18.415
G1 Z-2
G4 P0.1
G0 Z2
G0 X46.355 Y19.888
G1 Z-2
G4 P0.1
G0 Z2
G0 X46.355 Y15.875
G1 Z-2
G4 P0.1
G0 Z2
G0 X46.355 Y11.862
G1 Z-2
G4 P0.1
G0 Z2
G0 X41.275 Y18.288
G1 Z-2
G4 P0.1
G0 Z2
G0 X41.910 Y21.463
G1 Z-2
G4 P0.1
G0 Z2
G0 X36.830 Y19.888
G1 Z-2
G4 P0.1
G0 Z2
G0 X36.830 Y15.875
G1 Z-2
G4 P0.1
G0 Z2
G0 X36.830 Y11.862
G1 Z-2
G4 P0.1
G0 Z2
G0 X27.305 Y11.862
G1 Z-2
G4 P0.1
G0 Z2
G0 X27.305 Y15.875
G1 Z-2
G4 P0.1
G0 Z2
G0 X27.305 Y19.888
G1 Z-2
G4 P0.1
G0 Z2
G0 X22.860 Y22.860
G1 Z-2
G4 P0.1
G0 Z2
G0 X48.387 Y42.672
G1 Z-2
G4 P0.1
G0 Z2
G0 X49.911 Y41.275
G1 Z-2
G4 P0.1
G0 Z2
G0 X51.435 Y43.180
G1 Z-2
G4 P0.1
G0 Z2
G0 X55.245 Y41.910
G1 Z-2
G4 P0.1
G0 Z2
G0 X55.245 Y39.370
G1 Z-2
G4 P0.1
G0 Z2
G0 X55.245 Y36.830
G1 Z-2
G4 P0.1
G0 Z2
G0 X62.865 Y36.830
G1 Z-2
G4 P0.1
G0 Z2
G0 X62.865 Y39.370
G1 Z-2
G4 P0.1
G0 Z2
G0 X62.865 Y41.910
G1 Z-2
G4 P0.1
G0 Z2
G0 X62.865 Y44.450
G1 Z-2
G4 P0.1
G0 Z2
G0 X62.865 Y46.990
G1 Z-2
G4 P0.1
G0 Z2
G0 X62.865 Y49.530
G1 Z-2
G4 P0.1
G0 Z2
G0 X62.865 Y52.070
G1 Z-2
G4 P0.1
G0 Z2
G0 X62.865 Y54.610
G1 Z-2
G4 P0.1
G0 Z2
G0 X55.245 Y54.610
G1 Z-2
G4 P0.1
G0 Z2
G0 X55.245 Y52.070
G1 Z-2
G4 P0.1
G0 Z2
G0 X55.245 Y49.530
G1 Z-2
G4 P0.1
G0 Z2
G0 X55.245 Y46.990
G1 Z-2
G4 P0.1
G0 Z2
G0 X55.245 Y44.450
G1 Z-2
G4 P0.1
G0 Z2
G0 X73.787 Y55.753
G1 Z-2
G4 P0.1
G0 Z2
G0 X87.630 Y38.735
G1 Z-2
G4 P0.1
G0 Z2
G0 X87.630 Y33.020
G1 Z-2
G4 P0.1
G0 Z2
G0 X76.835 Y36.830
G1 Z-2
G4 P0.1
G0 Z2
G0 X81.280 Y19.888
G1 Z-2
G4 P0.1
G0 Z2
G0 X81.280 Y15.875
G1 Z-2
G4 P0.1
G0 Z2
G0 X81.280 Y11.862
G1 Z-2
G4 P0.1
G0 Z2
G0 X69.850 Y11.862
G1 Z-2
G4 P0.1
G0 Z2
G0 X69.850 Y15.875
G1 Z-2
G4 P0.1
G0 Z2
G0 X69.850 Y19.888
G1 Z-2
G4 P0.1
G0 Z2
G0 X55.880 Y19.888
G1 Z-2
G4 P0.1
G0 Z2
G0 X55.880 Y15.875
G1 Z-2
G4 P0.1
G0 Z2
G0 X55.880 Y11.862
G1 Z-2
G4 P0.1
G0 Z2
G0 X22.606 Y49.149
G1 Z-2
G4 P0.1
G0 Z2
G0 X25.400 Y54.610
G1 Z-2
G4 P0.1
G0 Z2
G0 X30.480 Y54.610
G1 Z-2
G4 P0.1
G0 Z2
G0 X27.940 Y59.690
G1 Z-2
G4 P0.1
G0 Z2
G0 Z20
T03 M6 (1.0000)
G0 X16.510 Y22.860
G1 Z-2
G4 P0.1
G0 Z2
G0 X16.510 Y20.320
G1 Z-2
G4 P0.1
G0 Z2
G0 X16.510 Y17.780
G1 Z-2
G4 P0.1
G0 Z2
G0 X6.985 Y16.820
G1 Z-2
G4 P0.1
G0 Z2
G0 X6.985 Y20.320
G1 Z-2
G4 P0.1
G0 Z2
G0 Z20
T04 M6 (3.0000)
G0 X5.000 Y5.000
G1 Z-2
G4 P0.1
G0 Z2
G0 X5.000 Y70.000
G1 Z-2
G4 P0.1
G0 Z2
G0 X95.000 Y70.000
G1 Z-2
G4 P0.1
G0 Z2
G0 X95.000 Y5.000
G1 Z-2
G4 P0.1
G0 Z2
(start milling routine)
F500
T201 M6 (1mm mill)
G0 Z5 X000.000 Y000.000
G0 Z5 X026.805 Y011.862
G1 Z-0.5
G1 X027.805 Y011.862
G1 Z1
G0 X026.805 Y011.862
G1 Z-1
G1 X027.805 Y011.862
G1 Z1
G0 X026.805 Y011.862
G1 Z-1.5
G1 X027.805 Y011.862
G1 Z1
G0 Z1 X026.805 Y011.862
G1 Z-2
G1 X027.805 Y011.862
G0 Z5
G0 Z5 X027.805 Y015.875
G1 Z-0.5
G1 X026.805 Y015.875
G1 Z1
G0 X027.805 Y015.875
G1 Z-1
G1 X026.805 Y015.875
G1 Z1
G0 X027.805 Y015.875
G1 Z-1.5
G1 X026.805 Y015.875
G1 Z1
G0 Z1 X027.805 Y015.875
G1 Z-2
G1 X026.805 Y015.875
G0 Z5
G0 Z5 X026.805 Y019.888
G1 Z-0.5
G1 X027.805 Y019.888
G1 Z1
G0 X026.805 Y019.888
G1 Z-1
G1 X027.805 Y019.888
G1 Z1
G0 X026.805 Y019.888
G1 Z-1.5
G1 X027.805 Y019.888
G1 Z1
G0 Z1 X026.805 Y019.888
G1 Z-2
G1 X027.805 Y019.888
G0 Z5
G0 Z5 X036.330 Y019.888
G1 Z-0.5
G1 X037.330 Y019.888
G1 Z1
G0 X036.330 Y019.888
G1 Z-1
G1 X037.330 Y019.888
G1 Z1
G0 X036.330 Y019.888
G1 Z-1.5
G1 X037.330 Y019.888
G1 Z1
G0 Z1 X036.330 Y019.888
G1 Z-2
G1 X037.330 Y019.888
G0 Z5
G0 Z5 X037.330 Y015.875
G1 Z-0.5
G1 X036.330 Y015.875
G1 Z1
G0 X037.330 Y015.875
G1 Z-1
G1 X036.330 Y015.875
G1 Z1
G0 X037.330 Y015.875
G1 Z-1.5
G1 X036.330 Y015.875
G1 Z1
G0 Z1 X037.330 Y015.875
G1 Z-2
G1 X036.330 Y015.875
G0 Z5
G0 Z5 X036.330 Y011.862
G1 Z-0.5
G1 X037.330 Y011.862
G1 Z1
G0 X036.330 Y011.862
G1 Z-1
G1 X037.330 Y011.862
G1 Z1
G0 X036.330 Y011.862
G1 Z-1.5
G1 X037.330 Y011.862
G1 Z1
G0 Z1 X036.330 Y011.862
G1 Z-2
G1 X037.330 Y011.862
G0 Z5
G0 Z5 X045.855 Y011.862
G1 Z-0.5
G1 X046.855 Y011.862
G1 Z1
G0 X045.855 Y011.862
G1 Z-1
G1 X046.855 Y011.862
G1 Z1
G0 X045.855 Y011.862
G1 Z-1.5
G1 X046.855 Y011.862
G1 Z1
G0 Z1 X045.855 Y011.862
G1 Z-2
G1 X046.855 Y011.862
G0 Z5
G0 Z5 X046.855 Y015.875
G1 Z-0.5
G1 X045.855 Y015.875
G1 Z1
G0 X046.855 Y015.875
G1 Z-1
G1 X045.855 Y015.875
G1 Z1
G0 X046.855 Y015.875
G1 Z-1.5
G1 X045.855 Y015.875
G1 Z1
G0 Z1 X046.855 Y015.875
G1 Z-2
G1 X045.855 Y015.875
G0 Z5
G0 Z5 X045.855 Y019.888
G1 Z-0.5
G1 X046.855 Y019.888
G1 Z1
G0 X045.855 Y019.888
G1 Z-1
G1 X046.855 Y019.888
G1 Z1
G0 X045.855 Y019.888
G1 Z-1.5
G1 X046.855 Y019.888
G1 Z1
G0 Z1 X045.855 Y019.888
G1 Z-2
G1 X046.855 Y019.888
G0 Z5
G0 Z5 X055.380 Y019.888
G1 Z-0.5
G1 X056.380 Y019.888
G1 Z1
G0 X055.380 Y019.888
G1 Z-1
G1 X056.380 Y019.888
G1 Z1
G0 X055.380 Y019.888
G1 Z-1.5
G1 X056.380 Y019.888
G1 Z1
G0 Z1 X055.380 Y019.888
G1 Z-2
G1 X056.380 Y019.888
G0 Z5
G0 Z5 X056.380 Y015.875
G1 Z-0.5
G1 X055.380 Y015.875
G1 Z1
G0 X056.380 Y015.875
G1 Z-1
G1 X055.380 Y015.875
G1 Z1
G0 X056.380 Y015.875
G1 Z-1.5
G1 X055.380 Y015.875
G1 Z1
G0 Z1 X056.380 Y015.875
G1 Z-2
G1 X055.380 Y015.875
G0 Z5
G0 Z5 X055.380 Y011.862
G1 Z-0.5
G1 X056.380 Y011.862
G1 Z1
G0 X055.380 Y011.862
G1 Z-1
G1 X056.380 Y011.862
G1 Z1
G0 X055.380 Y011.862
G1 Z-1.5
G1 X056.380 Y011.862
G1 Z1
G0 Z1 X055.380 Y011.862
G1 Z-2
G1 X056.380 Y011.862
G0 Z5
G0 Z5 X069.350 Y011.862
G1 Z-0.5
G1 X070.350 Y011.862
G1 Z1
G0 X069.350 Y011.862
G1 Z-1
G1 X070.350 Y011.862
G1 Z1
G0 X069.350 Y011.862
G1 Z-1.5
G1 X070.350 Y011.862
G1 Z1
G0 Z1 X069.350 Y011.862
G1 Z-2
G1 X070.350 Y011.862
G0 Z5
G0 Z5 X070.350 Y015.875
G1 Z-0.5
G1 X069.350 Y015.875
G1 Z1
G0 X070.350 Y015.875
G1 Z-1
G1 X069.350 Y015.875
G1 Z1
G0 X070.350 Y015.875
G1 Z-1.5
G1 X069.350 Y015.875
G1 Z1
G0 Z1 X070.350 Y015.875
G1 Z-2
G1 X069.350 Y015.875
G0 Z5
G0 Z5 X069.350 Y019.888
G1 Z-0.5
G1 X070.350 Y019.888
G1 Z1
G0 X069.350 Y019.888
G1 Z-1
G1 X070.350 Y019.888
G1 Z1
G0 X069.350 Y019.888
G1 Z-1.5
G1 X070.350 Y019.888
G1 Z1
G0 Z1 X069.350 Y019.888
G1 Z-2
G1 X070.350 Y019.888
G0 Z5
G0 Z5 X080.780 Y019.888
G1 Z-0.5
G1 X081.780 Y019.888
G1 Z1
G0 X080.780 Y019.888
G1 Z-1
G1 X081.780 Y019.888
G1 Z1
G0 X080.780 Y019.888
G1 Z-1.5
G1 X081.780 Y019.888
G1 Z1
G0 Z1 X080.780 Y019.888
G1 Z-2
G1 X081.780 Y019.888
G0 Z5
G0 Z5 X081.780 Y015.875
G1 Z-0.5
G1 X080.780 Y015.875
G1 Z1
G0 X081.780 Y015.875
G1 Z-1
G1 X080.780 Y015.875
G1 Z1
G0 X081.780 Y015.875
G1 Z-1.5
G1 X080.780 Y015.875
G1 Z1
G0 Z1 X081.780 Y015.875
G1 Z-2
G1 X080.780 Y015.875
G0 Z5
G0 Z5 X080.780 Y011.862
G1 Z-0.5
G1 X081.780 Y011.862
G1 Z1
G0 X080.780 Y011.862
G1 Z-1
G1 X081.780 Y011.862
G1 Z1
G0 X080.780 Y011.862
G1 Z-1.5
G1 X081.780 Y011.862
G1 Z1
G0 Z1 X080.780 Y011.862
G1 Z-2
G1 X081.780 Y011.862
G0 Z5
G0 Z5 X000.000 Y000.000
M30
